!!!!SEGMENT: pl-wn--mus-iii-108-035--001-002_wieniawski-henryk--concerto-no-2-romance.krn
!!!cenid: 18xx:3802
!!!COM: Wieniawski, Henryk
!!!COM-rismID: pe137176
!!!CDT: 1835/07/10-1880/03/31
!!!CNT:
!!!OPR: Concerto No. 2
!!!OTL: Romance
!!!OMV: 002
!!!PDT:
!!!AGN:
!!!SMS-siglum: PL-Wn
!!!SMS-shelfmark: Mus.III.108.035
!!!SMS-shelfwork: 001-002 M
!!!SMS-variant:
!!!SMS-altvar:
!!!NIFC-rismSourceID:
!!!NIFC-rismChildID:
!!!NIFC-islandoraID: none
!!!URL-pdf-islandora:
!!!URL-scan: https://polona.pl/item/concerto-no-2-op-22,ODQxMDEyMDI/4 @EN{Scan on Polona} @PL{Skany w portalu Polona}
!!!ONB-nifc: UWAGA: części Koncertu: 1. Allegro moderato, 2. Romance (od skanu 20), 3. Allegro moderato a la Zingara (od skanu 26)
!!!AIN: 1 piano 1 violn
!!!key: d
**kern	**kern	**dynam	**kern	**fing	**dynam
!	!	!	!LO:MO:mod=*	!	!
*	*	*	*scale:75%	*	*
*part2	*part2	*part2	*part1	*part1	*part1
*staff3	*staff2	*staff1/2	*staff1	*	*
*I"PIANO.	*I"PIANO.	*	*I"VIOLON.	*	*
*mI"Pianoforte	*mI"Pianoforte	*	*mI"Violino	*	*
*I'	*I'	*	*I'	*	*
*mI'pf	*mI'pf	*	*mI'vn	*	*
*Ipiano	*Ipiano	*	*Ivioln	*	*
*ICklav	*ICklav	*	*ICstr	*	*
*IGacmp	*IGacmp	*	*IGsolo	*	*
*clefF4	*clefG2	*	*clefG2	*	*
*k[b-e-]	*k[b-e-]	*	*k[b-e-]	*	*
*d:	*d:	*	*d:	*	*
*M12/8	*M12/8	*	*M12/8	*	*
=1	=1	=1	=1	=1	=1
*^	*	*	*	*	*
!!!OMD:
!!!OMD-mod: Andante non troppo
*xywh-17:114,908,3706,835	*xywh-17:114,908,3706,835	*xywh-17:114,908,3706,835	*	*xywh-17:102,201,3706,749	*	*
!	!	!LO:TX:a:B:t=Andante non troppo.:mod=	!	!LO:TX:a:B:t=Andante non troppo.:mod=	!	!LO:DY:rj
2.ryy	[4.BB- [4.BBB-\	8rc<	p	2.b-\	.	p
.	.	(8F</L	.	.	.	.
.	.	8B-</J	.	.	.	.
.	4BB-] 4BBB-\]	8c</L	.	.	.	.
.	.	8d</	.	.	.	.
.	8rEE	8e-</J)	.	.	.	.
*Xbrackettup	*	*	*	*	*	*
!LO:TUP:a:problem:klamra łukowa	!	!	!	!	!	!
16%3rc	4rEE	2.f^>/	.	(4.a/	.	.
16%3e-'>/L	.	.	.	.	.	.
.	8rEE	.	.	.	.	.
16%3c'>/	4rEE	.	.	4.cc\)	.	.
16%3F'>/J	.	.	.	.	.	.
.	8rEE	.	.	.	.	.
=2	=2	=2	=2	=2	=2	=2
2.ryy	[4.BB- [4.BBB-\	8rA<	.	(2.b-\	.	.
.	.	(<8F</L	.	.	.	.
.	.	8B-</J	.	.	.	.
.	4BB-] 4BBB-\]	8c/L	.	.	.	.
.	.	8d/	.	.	.	.
.	8rEE	8e-/J)	.	.	.	.
!LO:TUP:a:problem:klamra łukowa	!	!	!	!	!	!
16%3rc	4rEE	2.f^>/	.	4f/)	.	.
16%3d'/L	.	.	.	.	.	.
.	8rEE	.	.	8r	.	.
16%3B-'/	4rEE	.	.	4.f/	.	.
16%3F'/J	.	.	.	.	.	.
.	8rEE	.	.	.	.	.
=3	=3	=3	=3	=3	=3	=3
2.ryy	[4.BB- [4.BBB-\	8rA<	.	([2.a-X/	.	.
.	.	(<8F</L	.	.	.	.
.	.	8B-</J	.	.	.	.
.	4BB-] 4BBB-\]	8c/L	.	.	.	.
.	.	8d/	.	.	.	.
.	8rEE	8e-/J)	.	.	.	.
!LO:TUP:a:problem:klamra łukowa	!	!	!	!	!	!
!LO:TUP:r=2.	!	!	!	!	!	!
16%3rc	4rEE	2.f^>/	.	4.a-/]	.	.
16%3B-'>/L	.	.	.	.	.	.
.	8rEE	.	.	.	.	.
16%3A-X'>/J	4rEE	.	.	4g-X/	.	.
16%3ryy	.	.	.	.	.	.
.	8BB-'\	.	.	8f/)	.	.
=4	=4	=4	=4	=4	=4	=4
2.ryy	[>4.E- [4.EE-\	8r<	.	1.g-X	.	.
.	.	(8B-/L	.	.	.	.
.	.	8c/J	.	.	.	.
.	4E-] 4EE-\]	8d/L	.	.	.	.
.	.	8e-/	.	.	.	.
.	8rEE	8f/J)	.	.	.	.
!LO:TUP:a:problem:klamra łukowa	!	!	!	!	!	!
16%3rc	4rEE	2.g-X/	.	.	.	.
16%3e-'>/L	.	.	.	.	.	.
.	8rEE	.	.	.	.	.
16%3B-'>/	4rEE	.	.	.	.	.
16%3E-'>/J	.	.	.	.	.	.
.	8rEE	.	.	.	.	.
!!LO:LB:g=original
=5	=5	=5	=5	=5	=5	=5
*xywh-17:138,1969,3669,804	*xywh-17:138,1969,3669,804	*xywh-17:138,1969,3669,804	*	*xywh-17:144,1749,3529,316	*	*
2.ryy	[4.C [4.CC\	8r	.	2.gg-X\	.	.
.	.	(8B-/L	.	.	.	.
.	.	8c/J	.	.	.	.
.	4C] 4CC\]	8d/L	.	.	.	.
.	.	8e-/	.	.	.	.
.	8rEE	8f/J)	.	.	.	.
!LO:TUP:a:problem:klamra łukowa	!	!	!	!	!	!
!LO:TUP:r=2.	!	!	!	!	!	!
16%3r	4rEE	4g-X^>/	.	(4.ff\	.	.
16%3B-'>/L	.	.	.	.	.	.
.	8rEE	8r	.	.	.	.
16%3G-X'>/J	4rEE	4r	.	4.ee-\)	.	.
16%3ryy	.	.	.	.	.	.
.	8C'\	8r	.	.	.	.
=6	=6	=6	=6	=6	=6	=6
2.rcyy	[4.F [4.FF\	8r	.	[2.dd\	.	.
.	.	(8A/L	.	.	.	.
.	.	8B-/J	.	.	.	.
.	4F] 4FF\]	8c/L	.	.	.	.
.	.	8d/	.	.	.	.
.	8rEE	8e-/J)	.	.	.	.
!LO:TUP:a:problem:klamra łukowa	!	!	!	!	!	!
16%3rc	4rEE	2.f^>/	.	4dd\]	.	.
16%3d'/L	.	.	.	.	.	.
.	8rEE	.	.	8r	.	.
16%3B-'/	4rEE	.	.	4.dd\	.	.
16%3F'/J	.	.	.	.	.	.
.	8rEE	.	.	.	.	.
=7	=7	=7	=7	=7	=7	=7
2.ryy	2.G-X 2.GG-X\	8r	.	2.ee-\	.	.
.	.	(8A/L	.	.	.	.
.	.	8B-/J	.	.	.	.
.	.	8c/L	.	.	.	.
.	.	8d/	.	.	.	.
.	.	8e-/J)	.	.	.	.
!LO:TUP:a:problem:klamra łukowa	!	!	!	!	!	!
16%3rc	4F 4FF\	4f/	.	([4.dd\	.	.
16%3e-'/L	.	.	.	.	.	.
.	8rEE	8r	.	.	.	.
16%3A'/	4rEE	4r	.	4dd\]	.	.
16%3F'/J	.	.	.	.	.	.
.	8rEE	8r	.	8cc\)	.	.
=8	=8	=8	=8	=8	=8	=8
*	*	*^	*	*	*	*
8rc	1.BB-^	8raa	2.ryy	p	4b-\	.	.
8B-L 8F'/	.	8b-L 8d'/	.	.	.	.	.
8B-J 8F'/	.	8ccJ 8d'/	.	.	8r	.	.
8B-L 8F'/	.	8ddL 8d'/	.	.	4r	.	.
8B- 8F'/	.	8ee- 8d'/	.	.	.	.	.
8B-J 8F'/	.	8eenJ 8d'/	.	.	8r	.	.
8rc	.	8ff^/	8rc	.	2.r	.	.
8B-L 8F/	.	8raa	8d\L	.	.	.	.
8B-J 8F/	.	8raa	8d\J	.	.	.	.
8rc	.	8gg^/	8rc	.	.	.	.
8B-L 8F/	.	8raa	8d\L	.	.	.	.
8B-J 8F/	.	8raa	8d\J	.	.	.	.
!!LO:LB:g=original
=9	=9	=9	=9	=9	=9	=9	=9
*xywh-17:138,2987,3578,847	*xywh-17:138,2987,3578,847	*xywh-17:138,2987,3578,847	*xywh-17:138,2987,3578,847	*	*xywh-17:144,2743,3602,304	*	*
!	!	!LO:TX:a:B:t=Cl. SOLO.	!	!	!	!	!
8rc	1.BB-^	[4.ff/	8rc	.	([2.a/	.	.
8AL 8F/	.	.	8e-\L	.	.	.	.
8AJ 8F/	.	.	8e-\J	.	.	.	.
8AL 8F/	.	8ff/L]	8e-\L	.	.	.	.
8A 8F/	.	(8een/	8e-\	.	.	.	.
8AJ 8F/	.	8ee-X/J	8e-\J	.	.	.	.
8rc	.	8dd/L	8rc	.	4.a/]	.	.
8AL 8F/	.	8bn/	8e-\L	.	.	.	.
8AJ 8F/	.	8cc/J	8e-\J	.	.	.	.
8rc	.	(4ee-/	8rc	.	4gn/	.	.
8AL 8F/	.	.	8e-\L	.	.	.	.
8AJ 8F/	.	8dd/))	8e-\J	.	8a/)	.	.
=10	=10	=10	=10	=10	=10	=10	=10
8rc	1.BB-^	8b-/L	8rc	.	(2.b-\	.	.
8B-L 8F/	.	8b-'/	8d\L	.	.	.	.
8B-J 8F/	.	8cc'/J	8d\J	.	.	.	.
8B-L 8F/	.	8dd'/L	8d\L	.	.	.	.
8B- 8F/	.	8ee-'/	8d\	.	.	.	.
8B-J 8F/	.	8een'/J	8d\J	.	.	.	.
8rc	.	8ff^/	8rc	.	4f/)	.	.
8B-L 8F/	.	8raa	8d\L	.	.	.	.
8B-J 8F/	.	8raa	8d\J	.	8r	.	.
8rc	.	8gg^/	8rc	.	4r	.	.
8GL 8En/	.	8raa	8enL 8d\	.	.	.	.
8GJ 8E/	.	8raa	8eJ 8d\	.	8r	.	.
=11	=11	=11	=11	=11	=11	=11	=11
!	!	!LO:TX:a:B:t=Ob. SOLO.	!	!	!	!	!
8rc	[4.AA\	[4.aa/	8rc	.	[2.cc#X\	.	.
8c#XL 8A/	.	.	8cc#XL 8g\	.	.	.	.
8c#J 8A/	.	.	8cc#J 8g\	.	.	.	.
8c# 8A/	8AA\]	8aa/L]	8cc# 8g\	.	.	.	.
8rc	8rFF	(8gg#X/	8r	.	.	.	.
8rc	8rFF	8ggn/J	8r	.	.	.	.
2.rB	2.rGG	8ff#X/L	2.r	.	4.cc#\]	.	.
.	.	8dd#X/	.	.	.	.	.
.	.	8een/J	.	.	.	.	.
.	.	(4gg/	.	.	(4bn\	.	.
.	.	8ff#/))	.	.	8cc#\)	.	.
=12	=12	=12	=12	=12	=12	=12	=12
8rc	2.D\	8dd/L	8rc	.	2.dd\	.	.
8dL 8A/	.	8a/	8f#X\L	.	.	.	.
8dJ 8A/	.	8bn'/J	8f#\J	.	.	.	.
8dL 8A/	.	8cc#X'/L	8f#\L	.	.	.	.
8d 8A/	.	8dd'/	8f#\	.	.	.	.
8dJ 8A/	.	8een'/J	8f#\J	.	.	.	.
8rc	8D^\	8ffn'/L	[2.fn\	.	([4.ff\	.	.
8dL 8A/	8rEE	8cc#/	.	.	.	.	.
8dJ 8A/	8rEE	(8dd/J	.	.	.	.	.
8rc	8C^\	8ff/L)	.	.	4ff\]	.	.
8dL 8A-X/	8rEE	8cc#/	.	.	.	.	.
8dJ 8A-/	8rEE	(8dd/J	.	.	8a-X/)	.	.
!!LO:LB:g=original
=13	=13	=13	=13	=13	=13	=13	=13
*xywh-17:156,4078,3626,993	*xywh-17:156,4078,3626,993	*xywh-17:156,4078,3626,993	*xywh-17:156,4078,3626,993	*	*xywh-17:150,3767,3626,353	*	*
8rc	8BBn^\	8ff/L)	8f\L]	.	[4.g/	.	.
8dL 8G/	8rEE	8g'/	8f\	.	.	.	.
8dJ 8G/	8rEE	8a'/J	8f\J	.	.	.	.
8dL 8G/	4rEE	8bn'/L	8f\L	.	8g/L]	.	.
8d 8G/	.	8cc'/	8f\	.	8f#X/	.	.
8dJ 8G/	8rEE	8dd'/J	8f\J	.	8g/J	.	.
8rc	8C^\	8ee-'/L	[2.e-\	.	([4.ee-\	.	.
8cL 8G/	8rEE	(8b/	.	.	.	.	.
8cJ 8G/	8rEE	8cc/J	.	.	.	.	.
8rc	8BB-X\	8ee-/L)	.	.	4ee-\]	.	.
8cL 8G-X/	8rEE	(8b/	.	.	.	.	.
8cJ 8G-/	8rEE	8cc/J	.	.	8g-X/)	.	.
=14	=14	=14	=14	=14	=14	=14	=14
8rc	8AA\	8ee-/L)	8e-\L]	.	2.f#X/	.	.
8cL 8F/	8rEE	8f'/	8e-\	.	.	.	.
8cJ 8F/	8rEE	8g'/J	8e-\J	.	.	.	.
8cL 8F/	4rEE	8a'/L	8e-\L	.	.	.	.
8c 8F/	.	8b-X'/	8e-\	.	.	.	.
8cJ 8F/	8rEE	8cc'/J	8e-\J	.	.	.	.
8rc	8BB-\	8dd'/L	2.d\	.	([4.dd\	.	.
8B-L 8F/	8rEE	(8a/	.	.	.	.	.
8B-J 8F/	8rEE	8b-/J	.	.	.	.	.
8rc	8BB-\	8dd/L)	.	.	4dd\]	.	.
8B-L 8F/	8rEE	8a/	.	.	.	.	.
8B-J 8F/	8rEE	8b-/J	.	.	8f#/)	.	.
*	*	*v	*v	*	*	*	*
=15	=15	=15	=15	=15	=15	=15
8rc	2.C\	8dd/L	.	2.en/	.	.
8cL 8B-/	.	8a 8en/	.	.	.	.
8cJ 8B-/	.	8b-J 8e/	.	.	.	.
8cL 8B-/	.	8ccL 8e/	.	.	.	.
8c 8B-/	.	8a 8e/	.	.	.	.
8cJ 8B-/	.	8b-J 8e/	.	.	.	.
!!LO:TX:B:t=poco ritenuto
!	!	!	!	!LO:TX:a:i:t=poco rit.:dur=6e:ext=ud:problem:text with extention lines:mod=	!	!
8ryy	8A 8FF\	8ddL 8e-X/	.	([4.f/	.	.
!	!	!LO:TX:b:Bi:t=poco rit.:mod=	!	!	!	!
8ryy	8r	(8bn/	.	.	.	.
8ryy	8r	8cc/J	.	.	.	.
8rcyy	4r	8ff/L	.	8f/L]	.	.
8rcyy	.	8een/	.	8g/	.	.
8rcyy	8r	8ee-X/J)	.	8a/J)	.	.
*v	*v	*	*	*	*	*
!!LO:PB:g=original
=16	=16	=16	=16	=16	=16
!!LO:TX:B:t=a tempo
*xywh-18:434,794,3525,812	*xywh-18:434,794,3525,812	*	*xywh-18:452,293,3605,562	*	*
!	!	!	!LO:TX:a:t=a tempo:mod=	!	!
N(8BB-\L	4dd\	.	2.b-\	.	.
8F\	.	.	.	.	.
8B-\J	8r	.	.	.	.
2.ryy	8c/L	.	.	.	.
.	8d/	.	.	.	.
!	!LO:TX:t=P:problem:koniec łuku na dole	!	!	!	!
.	8e-/JN)	.	.	.	.
.	2.f^>/	.	(4.a/	.	.
!LO:TUP:a:problem:klamra łukowa	!	!	!	!	!
32%3r	.	.	4.cc\)	.	.
32%3e-'>/L	.	.	.	.	.
32%3c'>/	.	.	.	.	.
32%3F'>/J	.	.	.	.	.
=17	=17	=17	=17	=17	=17
*^	*	*	*	*	*
2.ryy	[4.BB- [4.BBB-\	8r	.	(<2.b-\	.	.
.	.	(<8F</L	.	.	.	.
.	.	8B-</J	.	.	.	.
.	4BB-] 4BBB-\]	8c/L	.	.	.	.
.	.	8d/	.	.	.	.
.	8rEE	8e-/J)	.	.	.	.
!LO:TUP:a:problem:klamra łukowa	!	!	!	!	!	!
16%3rc	4rEE	2.f^>/	.	4f/)	.	.
16%3d'>/L	.	.	.	.	.	.
.	8rEE	.	.	8r	.	.
16%3B-'>/	4rEE	.	.	4.f/	.	.
16%3F'>/J	.	.	.	.	.	.
.	8rEE	.	.	.	.	.
=18	=18	=18	=18	=18	=18	=18
2.ryy	[4.BB- [4.BBB-\	8r	.	([2.a-X/	.	.
.	.	(<8F</L	.	.	.	.
.	.	8B-</J	.	.	.	.
.	4BB-] 4BBB-\]	8c/L	.	.	.	.
.	.	8d/	.	.	.	.
.	8rEE	8e-/J)	.	.	.	.
*Xtuplet	*	*	*	*	*	*
16%3rc	4rEE	2.f^>/	.	4.a-/]	.	.
16%3B-'>/L	.	.	.	.	.	.
.	8rEE	.	.	.	.	.
16%3A-X'>/J	4rEE	.	.	(4g-X/	.	.
16%3ryy	.	.	.	.	.	.
.	8BB-'\	.	.	8f/))	.	.
=19	=19	=19	=19	=19	=19	=19
2.rcyy	[4.E- [4.EE-\	8r	.	1.g-X	.	.
.	.	(8B-/L	.	.	.	.
.	.	8c/J	.	.	.	.
.	4E-] 4EE-\]	8d/L	.	.	.	.
.	.	8e-/	.	.	.	.
.	8rEE	8f/J)	.	.	.	.
16%3rc	4rEE	2.g-X^>/	.	.	.	.
16%3e-'/L	.	.	.	.	.	.
.	8rEE	.	.	.	.	.
16%3B-'/	4rEE	.	.	.	.	.
16%3E-'/J	.	.	.	.	.	.
.	8rEE	.	.	.	.	.
!!LO:LB:g=original
=20	=20	=20	=20	=20	=20	=20
*xywh-18:391,1863,3605,788	*xywh-18:391,1863,3605,788	*xywh-18:391,1863,3605,788	*	*xywh-18:409,1545,3556,354	*	*
2.ryy	[<4.C [4.CC\	8r	.	2.gg-X\	.	.
.	.	(8B-/L	.	.	.	.
.	.	8c/J	.	.	.	.
.	4C] 4CC\]	8d/L	.	.	.	.
.	.	8e-/	.	.	.	.
.	8rEE	8f/J)	.	.	.	.
16%3rc	4rEE	4g-X/	.	(4.ff\	.	.
16%3B-'/L	.	.	.	.	.	.
.	8rEE	8r	.	.	.	.
16%3G-X'/J	4rEE	4r	.	4.ee-\)	.	.
16%3rcyy	.	.	.	.	.	.
.	8C'\	8r	.	.	.	.
=21	=21	=21	=21	=21	=21	=21
2.rcyy	[<4.F [4.FF\	8r	.	[2.dd\	.	.
.	.	(8A/L	.	.	.	.
.	.	8B-/J	.	.	.	.
.	4F] 4FF\]	8c/L	.	.	.	.
.	.	8d/	.	.	.	.
.	8rEE	8e-/J)	.	.	.	.
16%3rc	4rEE	2.f^>/	.	4dd\]	.	.
16%3d'/L	.	.	.	.	.	.
.	8rEE	.	.	8r	.	.
16%3B-'/	4rEE	.	.	4.dd\	.	.
16%3F'/J	.	.	.	.	.	.
.	8rEE	.	.	.	.	.
=22	=22	=22	=22	=22	=22	=22
2.ryy	2.G-X 2.GG-X\	8r	.	([4.ee-\	.	.
.	.	(8A/L	.	.	.	.
!!LO:TX:B:t=:mod=espressivo
!	!	!	!	!LO:TX:b:i:t=espress.:mod=	!	!
.	.	8B-/J	.	.	.	.
.	.	8c/L	.	4ee-\]	.	.
.	.	8d/	.	.	.	.
.	.	8e-/J)	.	8dd\)	1	.
!	!	!	!LO:MO:null:mod=>	!	!	!
16%3rc	4F 4FF\	4f^>/	.	([4.dd\	2	>
16%3e-'/L	.	.	.	.	.	.
.	8rEE	8r	.	.	.	.
16%3A'/	4rEE	4r	.	4dd\]	.	.
16%3F'/J	.	.	.	.	.	.
!	!	!	!LO:MO:null:mod=]	!	!	!
.	8rEE	8r	.	8cc\)	.	]]
=23	=23	=23	=23	=23	=23	=23
*	*	*^	*	*	*	*
8rc	1.BB-^	8raa	8r	.	4b-\	.	.
(8B-L 8F'/	.	(8b-'/L	(8d'\L	.	.	.	.
8B-J 8F'/	.	8cc'/J	8d'\J	.	8r	.	.
8B-L 8F'/	.	8dd'/L	8d'\L	.	4r	.	.
8B- 8F'/	.	8ee-'/	8d'\	.	.	.	.
8B-J 8F'/)	.	8een'/J)	8d'\J)	.	8r	.	.
8rc	.	8ff^/	8rc	.	2.r	.	.
8B-L 8F/	.	8raa	8d\L	.	.	.	.
8B-J 8F/	.	8raa	8d\J	.	.	.	.
8rc	.	8gg^/	8rc	.	.	.	.
8B-L 8F/	.	8raa	8d\L	.	.	.	.
8B-J 8F/	.	8raa	8d\J	.	.	.	.
!!LO:LB:g=original
=24	=24	=24	=24	=24	=24	=24	=24
*xywh-18:342,2939,3641,873	*xywh-18:342,2939,3641,873	*xywh-18:342,2939,3641,873	*xywh-18:342,2939,3641,873	*	*xywh-18:372,2627,3592,421	*	*
8rc	1.BB-^	[4.ff/	8rc	.	([2.au/	.	.
8AL 8F/	.	.	8e-\L	.	.	.	.
8AJ 8F/	.	.	8e-\J	.	.	.	.
8AL 8F/	.	8ff/L]	8e-\L	.	.	.	.
8A 8F/	.	(8een/	8e-\	.	.	.	.
8AJ 8F/	.	8ee-X/J	8e-\J	.	.	.	.
8rc	.	8dd/L	8rc	.	4.a/]	.	.
8AL 8F/	.	8bn/	8e-\L	.	.	.	.
8AJ 8F/	.	8cc/J	8e-\J	.	.	.	.
8rc	.	(4ee-/	8rc	.	4g/	.	.
8AL 8F/	.	.	8e-\L	.	.	.	.
8AJ 8F/	.	8dd/))	8e-\J	.	8a/)	.	.
=25	=25	=25	=25	=25	=25	=25	=25
8rc	2.BB-^\	(8b-/L	8rc	.	(2.b-\	.	.
8B-L 8F/	.	8b-'/	8d\L	.	.	.	.
8B-J 8F/	.	8cc'/J	8d\J	.	.	.	.
8B-L 8F/	.	8dd'/L	8d\L	.	.	.	.
8B- 8F/	.	8ee-'/	8d\	.	.	.	.
8B-J 8F/	.	8een'/J)	8d\J	.	.	.	.
8rc	8BB-\	8ff^/	8rc	.	4f/)	.	.
8B-L 8F/	8rEE	8raa	8d-X\L	.	.	.	.
8B-J 8F/	8rEE	8raa	8d-\J	.	8r	.	.
8rc	8BB--\	8gg-X^/	8rc	.	4r	.	.
8G-XL 8E-/	8rEE	8raa	8e-L 8d-\	.	.	.	.
8G-J 8E-/	8rEE	8raa	8e-J 8d-\	.	8r	.	.
=26	=26	=26	=26	=26	=26	=26	=26
!	!	!	!	!LO:MO:null:mod=<	!	!	!LO:HP:a
8rc	8AA-X\	4.aa-X/	8rc	.	[2.c/	.	<
8A-XL 8E-/	8rEE	.	8g-XL 8c\	.	.	.	.
8A-J 8E-/	8rEE	.	8g-J 8c\	.	.	.	.
8A- 8E-/	4rEE	8aan/L	8g- 8c\	.	.	.	.
8rc	.	(8ggn/	8rc	.	.	.	.
8rc	8rEE	8gg-X/J	8rc	.	.	.	.
4rc	2.rGG	8ff/L	4r	.	4.c/]	.	.
.	.	8ddn/	.	.	.	.	.
8rc	.	8ee-/J	8rc	.	.	.	.
4rc	.	(4gg-/	4rc	.	(4B-/	.	.
!	!	!	!	!LO:MO:null:mod=[	!	!	!
8rc	.	8ff/))	8rc	.	8c/)	.	[
*v	*v	*	*	*	*	*	*
*	*v	*v	*	*	*	*
!!LO:LB:g=original
=27	=27	=27	=27	=27	=27
*xywh-18:379,4075,3647,1057	*xywh-18:379,4075,3647,1057	*	*xywh-18:440,3763,3537,360	*	*
2.D-X\	4dd-X\	.	2.d-X/	.	.
.	8r	.	.	.	.
*	*tremolo	*	*	*	*
.	32F</LLL	.	.	.	.
.	32A-X</	.	.	.	.
.	32F</	.	.	.	.
.	32A-X</	.	.	.	.
.	32F</	.	.	.	.
.	32A-X</	.	.	.	.
.	32F</	.	.	.	.
.	32A-X</	.	.	.	.
.	32F</	.	.	.	.
.	32A-X</	.	.	.	.
.	32F</	.	.	.	.
.	32A-X</JJJ	.	.	.	.
!	!LO:TX:t=P:problem:brak belki w tremolo	!	!	!	!
4.E-\	(32G-X</LLL	.	(4.c/	.	.
.	32A-</	.	.	.	.
.	32G-</	.	.	.	.
.	32A-</)JJJ	.	.	.	.
.	(32G-</LLL	.	.	.	.
.	32B--X</	.	.	.	.
.	32G-</	.	.	.	.
.	32B--X</	.	.	.	.
.	32G-</	.	.	.	.
.	32B--X</	.	.	.	.
.	32G-</	.	.	.	.
.	32B--X</	.	.	.	.
4D-\	32G-</	.	4.e-/)	.	.
.	32B--X</	.	.	.	.
.	32G-</	.	.	.	.
.	32B--X</	.	.	.	.
.	32G-</	.	.	.	.
.	32B--X</	.	.	.	.
.	32G-</	.	.	.	.
.	32B--X</JJJ)	.	.	.	.
!	!LO:TX:t=P:problem:brak belki w tremolo	!	!	!	!
8C\	(32G-</LLL	.	.	.	.
.	32A-</	.	.	.	.
.	32G-</	.	.	.	.
.	32A-</JJJ)	.	.	.	.
=28	=28	=28	=28	=28	=28
4D-X\	(32F</LLL	.	(2.d-X/	.	.
.	32A-X</	.	.	.	.
.	32F</	.	.	.	.
.	32A-X</	.	.	.	.
.	32F</	.	.	.	.
.	32A-X</	.	.	.	.
.	32F</	.	.	.	.
.	32A-X</	.	.	.	.
8r	32F</	.	.	.	.
.	32A-X</	.	.	.	.
.	32F</	.	.	.	.
.	32A-X</	.	.	.	.
2.D- 2.DD-X\	32F</	.	.	.	.
.	32A-X</	.	.	.	.
.	32F</	.	.	.	.
.	32A-X</	.	.	.	.
.	32F</	.	.	.	.
.	32A-X</	.	.	.	.
.	32F</	.	.	.	.
.	32A-X</	.	.	.	.
.	32F</	.	.	.	.
.	32A-X</	.	.	.	.
.	32F</	.	.	.	.
.	32A-X</JJJ)	.	.	.	.
.	(32F</LLL	.	8A-X/L)	.	.
.	32A-</	.	.	.	.
.	32F</	.	.	.	.
.	32A-</	.	.	.	.
.	32F</	.	(8A-^/	.	.
.	32A-</	.	.	.	.
.	32F</	.	.	.	.
.	32A-</	.	.	.	.
.	32F</	.	8B-^/J	.	.
.	32A-</	.	.	.	.
.	32F</	.	.	.	.
.	32A-</	.	.	.	.
4.C 4.CC\	32F</	.	8c^/L	.	.
.	32A-</	.	.	.	.
.	32F</	.	.	.	.
.	32A-</	.	.	.	.
.	32F</	.	8d-^/	.	.
.	32A-</	.	.	.	.
.	32F</	.	.	.	.
.	32A-</	.	.	.	.
.	32F</	.	8e-^/J)	.	.
.	32A-</	.	.	.	.
.	32F</	.	.	.	.
.	32A-</JJJ)	.	.	.	.
=29	=29	=29	=29	=29	=29
4BBn 4BBBn\	32En</LLL	.	2.en/	.	.
.	32G#X</	.	.	.	.
.	32E</	.	.	.	.
.	32G#X</	.	.	.	.
.	32E</	.	.	.	.
.	32G#X</	.	.	.	.
.	32E</	.	.	.	.
.	32G#X</	.	.	.	.
8r	32E</	.	.	.	.
.	32G#X</	.	.	.	.
.	32E</	.	.	.	.
.	32G#X</JJJ	.	.	.	.
*tremolo	*	*	*	*	*
32BB\LLL	(32G#</LLL	.	.	.	.
32En\	32Bn</	.	.	.	.
32BB\	32G#</	.	.	.	.
32E\	32Bn</	.	.	.	.
32BB\	32G#</	.	.	.	.
32E\	32Bn</	.	.	.	.
32BB\	32G#</	.	.	.	.
32E\	32Bn</	.	.	.	.
32BB\	32G#</	.	.	.	.
32E\	32Bn</	.	.	.	.
32BB\	32G#</	.	.	.	.
32E\JJJ	32Bn</JJJ)	.	.	.	.
32BB\LLL	(32A</LLL	.	(4.d#X/	.	.
32F#X\	32B</	.	.	.	.
32BB\	32A</	.	.	.	.
32F#X\	32B</JJJ)	.	.	.	.
32BB\	(32A</LLL	.	.	.	.
32F#X\	32c</	.	.	.	.
32BB\	32A</	.	.	.	.
32F#X\	32c</	.	.	.	.
32BB\	32A</	.	.	.	.
32F#X\	32c</	.	.	.	.
32BB\	32A</	.	.	.	.
32F#X\JJJ	32c</	.	.	.	.
32BB\LLL	32A</	.	4.f#X/)	.	.
32E\	32c</	.	.	.	.
32BB\	32A</	.	.	.	.
32E\	32c</	.	.	.	.
32BB\	32A</	.	.	.	.
32E\	32c</	.	.	.	.
32BB\	32A</	.	.	.	.
32E\JJJ	32c</JJJ)	.	.	.	.
32BB\LLL	(32A</LLL	.	.	.	.
32D#X\	32B</	.	.	.	.
32BB\	32A</	.	.	.	.
32D#X\JJJ	32B</JJJ)	.	.	.	.
=30	=30	=30	=30	=30	=30
32BBnLLL 32EEn\	32G#X</LLL	.	(2.en/	.	.
32En\	32Bn</	.	.	.	.
32BB 32EE\	32G#</	.	.	.	.
32En\	32Bn</	.	.	.	.
32BB 32EE\	32G#</	.	.	.	.
32En\	32Bn</	.	.	.	.
32BB 32EE\	32G#</	.	.	.	.
32En\	32Bn</	.	.	.	.
32BB 32EE\	32G#</	.	.	.	.
32En\	32Bn</	.	.	.	.
32BB 32EE\	32G#</	.	.	.	.
32En\	32Bn</	.	.	.	.
32BB 32EE\	32G#</	.	.	.	.
32En\	32Bn</	.	.	.	.
32BB 32EE\	32G#</	.	.	.	.
32En\	32Bn</	.	.	.	.
32BB 32EE\	32G#</	.	.	.	.
32En\	32Bn</	.	.	.	.
32BB 32EE\	32G#</	.	.	.	.
32En\	32Bn</	.	.	.	.
32BB 32EE\	32G#</	.	.	.	.
32En\	32Bn</	.	.	.	.
32BB 32EE\	32G#</	.	.	.	.
32En\JJJ	32Bn</JJJ	.	.	.	.
32BBLLL 32EE\	32G#</LLL	.	8Bn/L)	.	.
32E\	32B</	.	.	.	.
32BB 32EE\	32G#</	.	.	.	.
32E\	32B</	.	.	.	.
32BB 32EE\	32G#</	.	(8B^/	.	.
32E\	32B</	.	.	.	.
32BB 32EE\	32G#</	.	.	.	.
32E\	32B</	.	.	.	.
32BB 32EE\	32G#</	.	8c#X^/J	.	.
32E\	32B</	.	.	.	.
32BB 32EE\	32G#</	.	.	.	.
32E\JJJ	32B</	.	.	.	.
32BBLLL 32DD#X\	32G#</	.	8d#X^/L	.	.
32D#X\	32B</	.	.	.	.
32BB 32DD#\	32G#</	.	.	.	.
32D#X\	32B</	.	.	.	.
32BB 32DD#\	32G#</	.	8e^/	.	.
32D#X\	32B</	.	.	.	.
32BB 32DD#\	32G#</	.	.	.	.
32D#X\	32B</	.	.	.	.
32BB 32DD#\	32G#</	.	8f#X^/J)	.	.
32D#X\	32B</	.	.	.	.
32BB 32DD#\	32G#</	.	.	.	.
32D#X\JJJ	32B</JJJ	.	.	.	.
!!LO:PB:g=original
=31	=31	=31	=31	=31	=31
*xywh-19:175,664,3578,889	*xywh-19:175,664,3578,889	*	*xywh-19:217,262,3578,487	*	*
!LO:TX:t=P:problem:kasownik BBn	!	!	!	!	!
!	!	!LO:MO:null:mod=!LO&colon;DY&colon;ed=brack	!	!	!
!	!	!	!	!	!
!	!	!LO:MO:null:mod=f	!	!	!
4Dn 4DDn\	(32Gn</LLL	.	2.gn/	.	f
.	32Bn</	.	.	.	.
.	32G</	.	.	.	.
.	32Bn</	.	.	.	.
.	32G</	.	.	.	.
.	32Bn</	.	.	.	.
.	32G</	.	.	.	.
.	32Bn</	.	.	.	.
8r	32G</	.	.	.	.
.	32Bn</	.	.	.	.
.	32G</	.	.	.	.
.	32Bn</JJJ)	.	.	.	.
(32D\LLL	(32Bn/LLL	.	.	.	.
32Gn\	32d/	.	.	.	.
32D\	32Bn/	.	.	.	.
32G\	32d/	.	.	.	.
32D\	32Bn/	.	.	.	.
32G\	32d/	.	.	.	.
32D\	32Bn/	.	.	.	.
32G\	32d/	.	.	.	.
32D\	32Bn/	.	.	.	.
32G\	32d/	.	.	.	.
32D\	32Bn/	.	.	.	.
32G\JJJ)	32d/JJJ)	.	.	.	.
(32D\LLL	(32c/LLL	.	(4.f#X/	.	.
32A\	32d/	.	.	.	.
32D\	32c/	.	.	.	.
32A\	32d/JJJ)	.	.	.	.
32D\	(32c/LLL	.	.	.	.
32A\	32e-X/	.	.	.	.
32D\	32c/	.	.	.	.
32A\	32e-X/	.	.	.	.
32D\	32c/	.	.	.	.
32A\	32e-X/	.	.	.	.
32D\	32c/	.	.	.	.
32A\JJJ)	32e-X/	.	.	.	.
(32D\LLL	32c/	.	4.a/)	.	.
32A\	32eX-/	.	.	.	.
32D\	32c/	.	.	.	.
32A\	32e-X/	.	.	.	.
32D\	32c/	.	.	.	.
32A\	32e-X/	.	.	.	.
32D\	32c/	.	.	.	.
32A\JJJ)	32e-X/JJJ)	.	.	.	.
(32D\LLL	(32c/LLL	.	.	.	.
32F#X\	32d/	.	.	.	.
32D\	32c/	.	.	.	.
32F#X\JJJ)	32d/JJJ)	.	.	.	.
*Xtremolo	*Xtremolo	*	*	*	*
=32	=32	=32	=32	=32	=32
8G 8D 8GG\	8d 8Bn/	.	(2.g/	.	.
8bn>L 8g>\	8dd'/L	.	.	.	.
8b>J 8g>\	8eenJ 8dd'/	.	.	.	.
8b>L 8g>\	8ff#XL 8dd'/	.	.	.	.
8b> 8g>\	8gg 8dd'/	.	.	.	.
8b>J 8g>\	8aaJ 8dd'/	.	.	.	.
*	*Xbrackettup	*	*	*	*
!	!LO:TUP:a:problem:klamra łukowa	!	!	!	!
!	!LO:TUP:r=2.	!	!	!	!
8b> 8g>\	16%3bbn 16%3dd'/	.	4d/)	.	.
8ryy	.	.	.	.	.
.	16%3dd'/L	.	.	.	.
2ryy	.	.	8r	.	.
.	16%3g'/J	.	4.d/	.	.
.	16%3d'\	.	.	.	.
=33	=33	=33	=33	=33	=33
8ryy	8r	.	[2.f#X/	.	.
8bn>L 8g>\	8ggL 8ff/	.	.	.	.
8b>J 8g>\	8aaJ 8ff/	.	.	.	.
8b>L 8g>\	8bbnL 8ff/	.	.	.	.
8b> 8g>\	8ccc 8ff/	.	.	.	.
8b>J 8g>\	8dddJ 8ff/	.	.	.	.
*	*Xtuplet	*	*	*	*
8b> 8g>\	16%3ggg 16%3ff/	.	4.f#/]	.	.
8ryy	.	.	.	.	.
.	16%3gg/L	.	.	.	.
2ryy	.	.	.	.	.
.	16%3g/J	.	(4e-/	.	.
.	16%3G\	.	.	.	.
.	.	.	8d/)	.	.
=34	=34	=34	=34	=34	=34
*^	*	*	*	*	*
8rc	[2.C\	8r	.	[2.e-/	.	.
8cL 8G/	.	8g'/L	.	.	.	.
8cJ 8G/	.	8aJ 8g'/	.	.	.	.
8cL 8G/	.	8bnL 8g'/	.	.	.	.
8c 8G/	.	8cc 8g'/	.	.	.	.
8cJ 8G/	.	8ddJ 8g'/	.	.	.	.
8c 8G/	8C\]	8ee- 8g/	.	4.e-/]	.	.
8rc	8rEE	(8G/L	<	.	.	.
8rc	8rEE	8A/J	.	.	.	.
4rc	4rEE	8Bn/L	.	4.e-/	.	.
.	.	8c/	.	.	.	.
8rc	8rEE	8d/J)	[[	.	.	.
!!LO:LB:g=original
=35	=35	=35	=35	=35	=35	=35
*xywh-19:163,1841,3632,853	*xywh-19:163,1841,3632,853	*xywh-19:163,1841,3632,853	*	*xywh-19:163,1518,3675,359	*	*
1.ryy	4r	8e-/L	p	2.ee-\	.	p
.	.	8e-/	.	.	.	.
!	!	!	!LO:MO:mod=!null:null	!	!	!
!	!	!	!LO:HP:a	!	!	!LO:MO:null:mod=>
.	8r	8e-/J	>	.	.	.
*	*	*tremolo	*	*	*	*
.	(4.C-X\	8e-L 8E-</	.	.	.	.
.	.	8e- 8E-</	.	.	.	.
.	.	8e-J 8E-</	.	.	.	.
.	4.E-\	8e-L 8F</	.	(4.dd-X\	.	.
.	.	8e- 8F</	.	.	.	.
.	.	8e-J 8F</	.	.	.	.
.	4.F\)	8e-L 8A-X/	.	4.cc-X\)	.	.
.	.	8e- 8A-/	.	.	.	.
!	!	!	!	!	!	!LO:MO:null:mod=]]
.	.	8e-J 8A-/	]]	.	.	.
=36	=36	=36	=36	=36	=36	=36
1.ryy	[1.BB-	8e-L 8B- 8G/	.	[2.b-\	.	.
.	.	8e- 8B- 8G/	.	.	.	.
.	.	8e- 8B- 8G/	.	.	.	.
.	.	8e- 8B- 8G/	.	.	.	.
.	.	8e- 8B- 8G/	.	.	.	.
.	.	8e-J 8B- 8G/	.	.	.	.
.	.	8e-L 8B- 8G/	.	4b-\]	.	.
.	.	8e- 8B- 8G/	.	.	.	.
.	.	8e- 8B- 8G/	.	8r	.	.
.	.	8e- 8B- 8G/	.	4.b-\	.	.
.	.	8e- 8B- 8G/	.	.	.	.
.	.	8e-J 8B- 8G/	.	.	.	.
*	*	*Xtremolo	*	*	*	*
=37	=37	=37	=37	=37	=37	=37
*	*	*^	*	*	*	*
*tremolo	*	*	*	*	*	*	*
8A-XL 8F/	1.BB-]	4r	2.e-\	.	2.cc-X\	.	.
8A- 8F/	.	.	.	.	.	.	.
8A- 8F/	.	8r	.	.	.	.	.
8A- 8F/	.	(4.f/	.	.	.	.	.
8A- 8F/	.	.	.	.	.	.	.
8A-J 8F/	.	.	.	.	.	.	.
8A-L 8F/	.	4.b-/	2.d\	.	(4.b-\	.	.
8A- 8F/	.	.	.	.	.	.	.
8A- 8F/	.	.	.	.	.	.	.
8A- 8F/	.	4.dd/)	.	.	4.a-X/)	.	.
8A- 8F/	.	.	.	.	.	.	.
8A-J 8F/	.	.	.	.	.	.	.
*v	*v	*	*	*	*	*	*
*	*v	*v	*	*	*	*
=38	=38	=38	=38	=38	=38
*	*tuplet	*	*	*	*
!!LO:TX:B:t=:mod=animato
!	!LO:TX:b:Bi:t=animato.:dur=42e:ext=ud:problem:text with extention lines:mod=	!	!	!	!
!	!LO:TUP:a:problem:klamra łukowa	!	!	!	!
32FLLL 32BBn\	16%3ggL 16%3g\	.	[2.g/	.	.
32G\	.	.	.	.	.
32F 32BB\	.	.	.	.	.
32G\	.	.	.	.	.
32F 32BB\	.	.	.	.	.
32G\	.	.	.	.	.
32F 32BB\	16%3aa-X 16%3a-X\	.	.	.	.
32G\	.	.	.	.	.
32F 32BB\	.	.	.	.	.
32G\	.	.	.	.	.
32F 32BB\	.	.	.	.	.
32G\	.	.	.	.	.
32F 32BB\	16%3gg 16%3g\	.	.	.	.
32G\	.	.	.	.	.
32F 32BB\	.	.	.	.	.
32G\	.	.	.	.	.
32F 32BB\	.	.	.	.	.
32G\	.	.	.	.	.
32F 32BB\	16%3aaa-XJ 16%3aa-\	.	.	.	.
32G\	.	.	.	.	.
32F 32BB\	.	.	.	.	.
32G\	.	.	.	.	.
32F 32BB\	.	.	.	.	.
32G\JJJ	.	.	.	.	.
32FLLL 32BB\	[2.ggg [2.gg\	.	8g/L]	.	.
32G\	.	.	.	.	.
32F 32BB\	.	.	.	.	.
32G\	.	.	.	.	.
32F 32BB\	.	.	8g/	.	.
32G\	.	.	.	.	.
32F 32BB\	.	.	.	.	.
32G\	.	.	.	.	.
32F 32BB\	.	.	8an/J	.	.
32G\	.	.	.	.	.
32F 32BB\	.	.	.	.	.
32G\	.	.	.	.	.
32F 32BB\	.	.	(8bn\L	.	.
32G\	.	.	.	.	.
32F 32BB\	.	.	.	.	.
32G\	.	.	.	.	.
32F 32BB\	.	.	8cc\	.	.
32G\	.	.	.	.	.
32F 32BB\	.	.	.	.	.
32G\	.	.	.	.	.
32F 32BB\	.	.	8dd\J)	.	.
32G\	.	.	.	.	.
32F 32BB\	.	.	.	.	.
32G\JJJ	.	.	.	.	.
=39	=39	=39	=39	=39	=39
!	!LO:TUP:a:problem:klamra łukowa	!	!	!	!
(32E-LLL 32C\	16%3ggg]L 16%3gg\]	.	[2.gg\	.	.
32G\	.	.	.	.	.
32E- 32C\	.	.	.	.	.
32G\	.	.	.	.	.
32E- 32C\	.	.	.	.	.
32G\	.	.	.	.	.
32E- 32C\	(16%3eee- 16%3ee-\	.	.	.	.
32G\	.	.	.	.	.
32E- 32C\	.	.	.	.	.
32G\	.	.	.	.	.
32E- 32C\	.	.	.	.	.
32G\	.	.	.	.	.
32E- 32C\	16%3ddd 16%3dd\	.	.	.	.
32G\	.	.	.	.	.
32E- 32C\	.	.	.	.	.
32G\	.	.	.	.	.
32E- 32C\	.	.	.	.	.
32G\	.	.	.	.	.
32E- 32C\	16%3cccJ 16%3cc\)	.	.	.	.
32G\	.	.	.	.	.
32E- 32C\	.	.	.	.	.
32G\	.	.	.	.	.
32E- 32C\	.	.	.	.	.
32G\JJJ)	.	.	.	.	.
(32E-LLL 32C\	4eee- 4ee-\	.	4.gg\]	.	.
32G\	.	.	.	.	.
32E- 32C\	.	.	.	.	.
32G\	.	.	.	.	.
32E- 32C\	.	.	.	.	.
32G\	.	.	.	.	.
32E- 32C\	.	.	.	.	.
32G\	.	.	.	.	.
32E- 32C\	8r	.	.	.	.
32G\	.	.	.	.	.
32E- 32C\	.	.	.	.	.
32G\	.	.	.	.	.
32E- 32C\	4r	.	(4ff\	.	.
32G\	.	.	.	.	.
32E- 32C\	.	.	.	.	.
32G\	.	.	.	.	.
32E- 32C\	.	.	.	.	.
32G\	.	.	.	.	.
32E- 32C\	.	.	.	.	.
32G\	.	.	.	.	.
32E- 32C\	8r	.	8ee-\)	.	.
32G\	.	.	.	.	.
32E- 32C\	.	.	.	.	.
32G\JJJ)	.	.	.	.	.
!!LO:LB:g=original
=40	=40	=40	=40	=40	=40
*xywh-19:156,2920,3712,810	*xywh-19:156,2920,3712,810	*	*xywh-19:163,2633,3645,341	*	*
!	!LO:TUP:a:problem:klamra łukowa	!	!	!	!
(32DLLL 32C\	16%3r	.	[2.dd\	.	.
32A 32F#X\	.	.	.	.	.
32D 32C\	.	.	.	.	.
32A 32F#X\	.	.	.	.	.
32D 32C\	.	.	.	.	.
32A 32F#X\	.	.	.	.	.
32D 32C\	(16%3ee-L 16%3e-\	.	.	.	.
32A 32F#X\	.	.	.	.	.
32D 32C\	.	.	.	.	.
32A 32F#X\	.	.	.	.	.
32D 32C\	.	.	.	.	.
32A 32F#X\	.	.	.	.	.
32D 32C\	16%3dd 16%3d\	.	.	.	.
32A 32F#X\	.	.	.	.	.
32D 32C\	.	.	.	.	.
32A 32F#X\	.	.	.	.	.
32D 32C\	.	.	.	.	.
32A 32F#X\	.	.	.	.	.
32D 32C\	16%3eee-J 16%3ee-\)	.	.	.	.
32A 32F#X\	.	.	.	.	.
32D 32C\	.	.	.	.	.
32A 32F#X\	.	.	.	.	.
32D 32C\	.	.	.	.	.
32AJJJ 32F#X\)	.	.	.	.	.
(32DLLL 32C\	[2.ddd [2.dd\	.	8dd\L]	.	.
32A 32F#\	.	.	.	.	.
32D 32C\	.	.	.	.	.
32A 32F#\	.	.	.	.	.
32D 32C\	.	.	8dd\	.	.
32A 32F#\	.	.	.	.	.
32D 32C\	.	.	.	.	.
32A 32F#\	.	.	.	.	.
32D 32C\	.	.	8een\J	.	.
32A 32F#\	.	.	.	.	.
32D 32C\	.	.	.	.	.
32A 32F#\	.	.	.	.	.
32D 32C\	.	.	(8ff#X\L	.	.
32A 32F#\	.	.	.	.	.
32D 32C\	.	.	.	.	.
32A 32F#\	.	.	.	.	.
32D 32C\	.	.	8gg\	.	.
32A 32F#\	.	.	.	.	.
32D 32C\	.	.	.	.	.
32A 32F#\	.	.	.	.	.
32D 32C\	.	.	8aa\J)	.	.
32A 32F#\	.	.	.	.	.
32D 32C\	.	.	.	.	.
32AJJJ 32F#\)	.	.	.	.	.
=41	=41	=41	=41	=41	=41
!	!LO:TUP:a	!	!	!	!
32DLLL 32BB-\	16%3ddd]L 16%3dd\]	.	[2.ddd\	.	.
32G\	.	.	.	.	.
32D 32BB-\	.	.	.	.	.
32G\	.	.	.	.	.
32D 32BB-\	.	.	.	.	.
32G\	.	.	.	.	.
32D 32BB-\	(16%3bb- 16%3b-\	.	.	.	.
32G\	.	.	.	.	.
32D 32BB-\	.	.	.	.	.
32G\	.	.	.	.	.
32D 32BB-\	.	.	.	.	.
32G\	.	.	.	.	.
32D 32BB-\	16%3aan 16%3an\	.	.	.	.
32G\	.	.	.	.	.
32D 32BB-\	.	.	.	.	.
32G\	.	.	.	.	.
32D 32BB-\	.	.	.	.	.
32G\	.	.	.	.	.
32D 32BB-\	16%3ggJ 16%3g\)	.	.	.	.
32G\	.	.	.	.	.
32D 32BB-\	.	.	.	.	.
32G\	.	.	.	.	.
32D 32BB-\	.	.	.	.	.
32G\JJJ	.	.	.	.	.
32DLLL 32BB-\	[2.bb- [2.b-\	.	4.ddd\]	.	.
32G\	.	.	.	.	.
32D 32BB-\	.	.	.	.	.
32G\	.	.	.	.	.
32D 32BB-\	.	.	.	.	.
32G\	.	.	.	.	.
32D 32BB-\	.	.	.	.	.
32G\	.	.	.	.	.
32D 32BB-\	.	.	.	.	.
32G\	.	.	.	.	.
32D 32BB-\	.	.	.	.	.
32G\	.	.	.	.	.
!!LO:TX:B:t=:mod=piu mosso
!	!LO:TX:b:Bi:t=più mosso.:mod=	!	!	!	!
32D 32BB-\	.	.	(4ccc\	.	.
32G\	.	.	.	.	.
32D 32BB-\	.	.	.	.	.
32G\	.	.	.	.	.
32D 32BB-\	.	.	.	.	.
32G\	.	.	.	.	.
32D 32BB-\	.	.	.	.	.
32G\	.	.	.	.	.
32D 32BB-\	.	.	8bb-\)	.	.
32G\	.	.	.	.	.
32D 32BB-\	.	.	.	.	.
32G\JJJ	.	.	.	.	.
=42	=42	=42	=42	=42	=42
(32B-LLL 32A-X\	8bb-]L 8b-\]	.	[2.bb-\	.	.
32d\	.	.	.	.	.
32B- 32A-\	.	.	.	.	.
32d\	.	.	.	.	.
32B- 32A-\	(8b-\	.	.	.	.
32d\	.	.	.	.	.
32B- 32A-\	.	.	.	.	.
32d\	.	.	.	.	.
32B- 32A-\	8cc\J	.	.	.	.
32d\	.	.	.	.	.
32B- 32A-\	.	.	.	.	.
32d\	.	.	.	.	.
32B- 32A-\	8dd\L	.	.	.	.
32d\	.	.	.	.	.
32B- 32A-\	.	.	.	.	.
32d\	.	.	.	.	.
32B- 32A-\	8ee-\	.	.	.	.
32d\	.	.	.	.	.
32B- 32A-\	.	.	.	.	.
32d\	.	.	.	.	.
32B- 32A-\	8ff\J)	.	.	.	.
32d\	.	.	.	.	.
32B- 32A-\)	.	.	.	.	.
(32d\JJJ	.	.	.	.	.
32B-LLL 32A-\	[2.bb-\	.	8bb-\L]	.	.
32d\	.	.	.	.	.
32B- 32A-\	.	.	.	.	.
32d\	.	.	.	.	.
32B- 32A-\	.	.	(8b-\	.	.
32d\	.	.	.	.	.
32B- 32A-\	.	.	.	.	.
32d\	.	.	.	.	.
32B- 32A-\	.	.	8cc\J	.	.
32d\	.	.	.	.	.
32B- 32A-\	.	.	.	.	.
32d\	.	.	.	.	.
32B- 32A-\	.	.	8dd\L)	.	.
32d\	.	.	.	.	.
32B- 32A-\	.	.	.	.	.
32d\	.	.	.	.	.
32B- 32A-\	.	.	(8ee-'\	.	.
32d\	.	.	.	.	.
32B- 32A-\	.	.	.	.	.
32d\	.	.	.	.	.
32B- 32A-\	.	.	8ff'\J)	.	.
32d\	.	.	.	.	.
32B- 32A-\)	.	.	.	.	.
32d\JJJ	.	.	.	.	.
=43	=43	=43	=43	=43	=43
!	!LO:TUP:a	!	!	!	!
(32B-LLL 32G-X\	16%3bb-\L]	.	[2.bb-\	.	.
32e-\	.	.	.	.	.
32B- 32G-\	.	.	.	.	.
32e-\	.	.	.	.	.
32B- 32G-\	.	.	.	.	.
32e-\	.	.	.	.	.
32B- 32G-\	(16%3gg-X\	.	.	.	.
32e-\	.	.	.	.	.
32B- 32G-\	.	.	.	.	.
32e-\	.	.	.	.	.
32B- 32G-\	.	.	.	.	.
32e-\	.	.	.	.	.
32B- 32G-\	16%3ff\	.	.	.	.
32e-\	.	.	.	.	.
32B- 32G-\	.	.	.	.	.
32e-\	.	.	.	.	.
32B- 32G-\	.	.	.	.	.
32e-\	.	.	.	.	.
32B- 32G-\	16%3ee-\J)	.	.	.	.
32e-\	.	.	.	.	.
32B- 32G-\	.	.	.	.	.
32e-\	.	.	.	.	.
32B- 32G-\	.	.	.	.	.
32e-\JJJ)	.	.	.	.	.
(32B-LLL 32G-\	4gg-\	.	16%3bb-\L]	.	.
32e-\	.	.	.	.	.
32B- 32G-\	.	.	.	.	.
32e-\	.	.	.	.	.
32B- 32G-\	.	.	.	.	.
32e-\	.	.	.	.	.
!	!	!	!LO:TUP:a	!	!
32B- 32G-\	.	.	(16%3gg-X\	.	.
32e-\	.	.	.	.	.
32B- 32G-\	8r	.	.	.	.
32e-\	.	.	.	.	.
32B- 32G-\	.	.	.	.	.
32e-\	.	.	.	.	.
32B- 32G-\	4r	.	16%3ff\	.	.
32e-\	.	.	.	.	.
32B- 32G-\	.	.	.	.	.
32e-\	.	.	.	.	.
32B- 32G-\	.	.	.	.	.
32e-\	.	.	.	.	.
32B- 32G-\	.	.	16%3ee-\J)	.	.
32e-\	.	.	.	.	.
32B- 32G-\	8r	.	.	.	.
32e-\	.	.	.	.	.
32B- 32G-\	.	.	.	.	.
32e-\JJJ)	.	.	.	.	.
*Xtremolo	*	*	*	*	*
!!LO:LB:g=original
=44	=44	=44	=44	=44	=44
*xywh-19:150,4035,3724,1060	*xywh-19:150,4035,3724,1060	*	*xywh-19:150,3706,3584,371	*	*
*	*tremolo	*	*	*	*
!	!	!LO:MO:null:mod=!LO&colon;DY&colon;ed=brack	!	!	!
!	!	!	!	!	!
!	!	!LO:MO:null:mod=f	!	!	!
4r	32c-X^/LLL	.	2.aan\	.	f
.	32e-/	.	.	.	.
.	32c-/	.	.	.	.
.	32e-/	.	.	.	.
.	32c-/	.	.	.	.
.	32e-/	.	.	.	.
.	32c-/	.	.	.	.
.	32e-/	.	.	.	.
8r	32c-/	.	.	.	.
.	32e-/	.	.	.	.
.	32c-/	.	.	.	.
.	32e-/	.	.	.	.
4G-X^\	32c-/	.	.	.	.
.	32e-/	.	.	.	.
.	32c-/	.	.	.	.
.	32e-/	.	.	.	.
.	32c-/	.	.	.	.
.	32e-/	.	.	.	.
.	32c-/	.	.	.	.
.	32e-/	.	.	.	.
8r	32c-/	.	.	.	.
.	32e-/	.	.	.	.
.	32c-/	.	.	.	.
.	32e-/JJJ	.	.	.	.
4r	32B-^/LLL	.	2.bb-\	.	.
.	32e-/	.	.	.	.
.	32B-/	.	.	.	.
.	32e-/	.	.	.	.
.	32B-/	.	.	.	.
.	32e-/	.	.	.	.
.	32B-/	.	.	.	.
.	32e-/	.	.	.	.
8r	32B-/	.	.	.	.
.	32e-/	.	.	.	.
.	32B-/	.	.	.	.
.	32e-/	.	.	.	.
4G-\	32B-/	.	.	.	.
.	32e-/	.	.	.	.
.	32B-/	.	.	.	.
.	32e-/	.	.	.	.
.	32B-/	.	.	.	.
.	32e-/	.	.	.	.
.	32B-/	.	.	.	.
.	32e-/	.	.	.	.
8r	32B-/	.	.	.	.
.	32e-/	.	.	.	.
.	32B-/	.	.	.	.
.	32e-/JJJ	.	.	.	.
=45	=45	=45	=45	=45	=45
4r	(32An/LLL	.	[2.ccc-X\	.	.
.	32e-/	.	.	.	.
.	32A/	.	.	.	.
.	32e-/	.	.	.	.
.	32A/	.	.	.	.
.	32e-/	.	.	.	.
.	32A/	.	.	.	.
.	32e-/	.	.	.	.
8r	32A/	.	.	.	.
.	32e-/	.	.	.	.
.	32A/	.	.	.	.
.	32e-/	.	.	.	.
4G-X 4GG-X/	32A/	.	.	.	.
.	32e-/	.	.	.	.
.	32A/	.	.	.	.
.	32e-/	.	.	.	.
.	32A/	.	.	.	.
.	32e-/	.	.	.	.
.	32A/	.	.	.	.
.	32e-/	.	.	.	.
8r	32A/	.	.	.	.
.	32e-/	.	.	.	.
.	32A/)	.	.	.	.
.	32e-/JJJ)	.	.	.	.
4GG-X 4GGG-X/	(32A/LLL	.	4.ccc-\]	.	.
.	32e-/	.	.	.	.
.	32A/	.	.	.	.
.	32e-/	.	.	.	.
.	32A/	.	.	.	.
.	32e-/	.	.	.	.
.	32A/	.	.	.	.
.	32e-/	.	.	.	.
8r	32A/	.	.	.	.
.	32e-/	.	.	.	.
.	32A/	.	.	.	.
.	32e-/JJJ)	.	.	.	.
4r	(32B-/LLL	.	4.bb-\	.	.
.	32e-/	.	.	.	.
.	32B-/	.	.	.	.
.	32e-/	.	.	.	.
.	32B-/	.	.	.	.
.	32e-/	.	.	.	.
.	32B-/	.	.	.	.
.	32e-/	.	.	.	.
8r	32B-/	.	.	.	.
.	32e-/	.	.	.	.
.	32B-/	.	.	.	.
.	32e-/JJJ)	.	.	.	.
=46	=46	=46	=46	=46	=46
!	!	!	!LO:TUP:a	!	!
4r	(32c-X/LLL	.	(16%3aa\L	.	.
.	32e-/	.	.	.	.
.	32c-/	.	.	.	.
.	32e-/	.	.	.	.
.	32c-/	.	.	.	.
.	32e-/	.	.	.	.
.	32c-/	.	16%3gg-X\)	.	.
.	32e-/	.	.	.	.
8r	32c-/	.	.	.	.
.	32e-/	.	.	.	.
.	32c-/	.	.	.	.
.	32e-/	.	.	.	.
4.G-X 4.GG-X/	32c-/	.	16%3ff\	.	.
.	32e-/	.	.	.	.
.	32c-/	.	.	.	.
.	32e-/	.	.	.	.
.	32c-/	.	.	.	.
.	32e-/	.	.	.	.
.	32c-/	.	16%3ee-\J	.	.
.	32e-/	.	.	.	.
.	32c-/	.	.	.	.
.	32e-/	.	.	.	.
.	32c-/	.	.	.	.
.	32e-/JJJ)	.	.	.	.
!	!	!	!LO:TUP:b	!	!
4r	(32B-/LLL	.	(16%3b-/L	.	.
.	32e-/	.	.	.	.
.	32B-/	.	.	.	.
.	32e-/	.	.	.	.
.	32B-/	.	.	.	.
.	32e-/	.	.	.	.
.	32B-/	.	16%3g-X/)	.	.
.	32e-/	.	.	.	.
8r	32B-/	.	.	.	.
.	32e-/	.	.	.	.
.	32B-/	.	.	.	.
.	32e-/	.	.	.	.
4.G- 4.GG-/	32B-/	.	16%3f/	.	.
.	32e-/	.	.	.	.
.	32B-/	.	.	.	.
.	32e-/	.	.	.	.
.	32B-/	.	.	.	.
.	32e-/	.	.	.	.
.	32B-/	.	16%3e-/J	.	.
.	32e-/	.	.	.	.
.	32B-/	.	.	.	.
.	32e-/	.	.	.	.
.	32B-/	.	.	.	.
.	32e-/JJJ)	.	.	.	.
=47	=47	=47	=47	=47	=47
1.F 1.FF	(32B-/LLL	.	(4e-/	.	.
.	32e-/	.	.	.	.
.	32B-/	.	.	.	.
.	32e-/	.	.	.	.
.	32B-/	.	.	.	.
.	32e-/	.	.	.	.
.	32B-/	.	.	.	.
.	32e-/	.	.	.	.
.	32B-/	.	8cc\)	.	.
.	32e-/	.	.	.	.
.	32B-/	.	.	.	.
.	32e-/	.	.	.	.
.	32B-/	.	[2.cc\	.	.
.	32e-/	.	.	.	.
.	32B-/	.	.	.	.
.	32e-/	.	.	.	.
.	32B-/	.	.	.	.
.	32e-/	.	.	.	.
.	32B-/	.	.	.	.
.	32e-/	.	.	.	.
.	32B-/	.	.	.	.
.	32e-/	.	.	.	.
.	32B-/	.	.	.	.
.	32e-/JJJ)	.	.	.	.
.	(32B-/LLL	.	.	.	.
.	32e-/	.	.	.	.
.	32B-/	.	.	.	.
.	32e-/	.	.	.	.
.	32B-/	.	.	.	.
.	32e-/	.	.	.	.
.	32B-/	.	.	.	.
.	32e-/	.	.	.	.
.	32B-/	.	.	.	.
.	32e-/	.	.	.	.
.	32B-/	.	.	.	.
.	32e-/	.	.	.	.
.	32B-/	.	4.cc\]	.	.
.	32e-/	.	.	.	.
.	32B-/	.	.	.	.
.	32e-/	.	.	.	.
.	32B-/	.	.	.	.
.	32e-/	.	.	.	.
.	32B-/	.	.	.	.
.	32e-/	.	.	.	.
.	32B-/	.	.	.	.
.	32e-/	.	.	.	.
.	32B-/	.	.	.	.
.	32e-/JJJ)	.	.	.	.
=48	=48	=48	=48	=48	=48
*tremolo	*	*	*	*	*
(32FF/LLL	(32A/LLL	.	8r	.	.
32C/	32e-/	.	.	.	.
32FF/	32A/	.	.	.	.
32C/	32e-/	.	.	.	.
32FF/	32A/	.	(8en/L	.	.
32C/	32e-/	.	.	.	.
32FF/	32A/	.	.	.	.
32C/	32e-/	.	.	.	.
32FF/	32A/	.	8f/J	.	.
32C/	32e-/	.	.	.	.
32FF/	32A/	.	.	.	.
32C/	32e-/	.	.	.	.
32FF/	32A/	.	8a/L	.	.
32C/	32e-/	.	.	.	.
32FF/	32A/	.	.	.	.
32C/	32e-/	.	.	.	.
32FF/	32A/	.	8cc/	.	.
32C/	32e-/	.	.	.	.
32FF/	32A/	.	.	.	.
32C/	32e-/	.	.	.	.
32FF/	32A/	.	8ff/J)	.	.
32C/	32e-/	.	.	.	.
32FF/	32A/)	.	.	.	.
32C/JJJ)	32e-/JJJ	.	.	.	.
*Xtremolo	*Xtremolo	*	*	*	*
*	*Xtuplet	*	*	*	*
!!LO:TX:B:t=:mod=rallentando
!	!LO:TX:a:Bi:t=rall.:mod=	!	!	!	!
16%3CL 16%3FF/	16%3e-L 16%3A/	.	(4.fff\	.	.
!	!	!	!	!	!LO:MO:null:mod=!LO&colon;DY&colon;ed=brack
!	!	!	!	!	!
!	!	!	!	!	!LO:MO:null:mod=p
(16%3F/	(16%3f/	p	.	.	.
16%3G/	16%3g/	.	4.eee-\)	.	.
16%3A/J)	16%3a/J)	.	.	.	.
!!LO:PB:g=original
!LO:MO:mod==49||	!LO:MO:mod==49||	!LO:MO:mod==49||	!LO:MO:mod==49||	!LO:MO:mod==49||	!LO:MO:mod==49||
=49	=49	=49	=49	=49	=49
*M4/4	*M4/4	*	*M4/4	*	*
*met(c)	*met(c)	*	*met(c)	*	*
*^	*^	*	*	*	*
*	*^	*	*	*	*	*	*
*xywh-20:372,806,3660,818	*xywh-20:372,806,3660,818	*xywh-20:372,806,3660,818	*xywh-20:372,806,3660,818	*xywh-20:372,806,3660,818	*	*xywh-20:409,305,3586,531	*	*
*	*	*	*	*	*	*Xtuplet	*	*
!!LO:TX:B:t=:mod=dolce
!!LO:TX:B:t=:mod=Listesso tempo
!	!	!	!LO:TX:a:B:t=Listesso tempo.:mod=	!	!	!LO:TX:b:Bi:t=dolce.:mod=	!	!
!	!	!	!	!	!	!	!	!LO:MO:null:mod=!LO&colon;DY&colon;ed=brack
!	!	!	!	!	!	!	!	!
!	!	!	!	!	!	!	!	!LO:MO:null:mod=pp
2B-/	8F\	1BB-	2b-/	8d\	p p	[3.ddd\	.	.
.	4F\	.	.	4d\	.	.	.	.
.	(8F\	.	.	(8d\	.	.	.	.
(4A-X/	8G\)	.	(4a/	8e-\)	.	12ddd\L]	.	.
.	.	.	.	.	.	(12ccc\	.	.
.	4G\	.	.	4e-\	.	.	.	.
.	.	.	.	.	.	12bb-\J	.	.
4c/)	.	.	4cc/)	.	.	12aa\L	.	.
.	.	.	.	.	.	12bb-\	.	.
.	8G\	.	.	8e-\	.	.	.	.
.	.	.	.	.	.	12ccc\J)	.	.
=50	=50	=50	=50	=50	=50	=50	=50	=50
(2B-/	8F\	1BB-	(2b-/	8d\	.	([6.ff\	.	.
.	4F\	.	.	4d\	.	.	.	.
.	.	.	.	.	.	12ff\L]	.	.
.	.	.	.	.	.	24gg\L	.	.
.	8F\	.	.	8d\	.	24aa\	.	.
.	.	.	.	.	.	24bb-\	.	.
.	.	.	.	.	.	24ccc\JJ)	.	.
8F/)	2rEEyy	.	8f/)	8d 8B-\	.	[6.ddd\	.	.
8rc	.	.	8r	4d 4B-\	.	.	.	.
4F/	.	.	4f/	.	.	6ddd\]	.	.
.	.	.	.	8d 8B-\	.	.	.	.
.	.	.	.	.	.	12r	.	.
*	*v	*v	*	*	*	*	*	*
=51	=51	=51	=51	=51	=51	=51	=51
[2A-X/	2BB-\	[2a-X/	8rc	.	12r	.	.
!	!	!	!	!LO:MO:null:mod=<	!	!	!
.	.	.	.	.	(12bb-~\L	.	<
.	.	.	4d 4B-\	.	.	.	.
.	.	.	.	.	12ccc\J	.	.
.	.	.	.	.	12ddd\L	.	.
.	.	.	.	.	12eee-\	1	.
.	.	.	8d 8B-\	.	.	.	.
.	.	.	.	.	12fff\J)	.	.
!	!	!	!	!LO:MO:null:mod=[	!	!	!
4A-/]	2BBB-\	4a-/]	8d 8B-\	.	[3.bbb-\	.	[
.	.	.	4d 4B-\	.	.	.	.
(8.G-X/L	.	(8.g-X/L	.	.	.	.	.
.	.	.	8d 8B-\	.	.	.	.
16F/Jk)	.	16f/Jk)	.	.	.	.	.
=52	=52	=52	=52	=52	=52	=52	=52
2.G-X/	1EE-X	2.g-X/	8rc	.	8bbb-\L]	.	.
.	.	.	4e- 4B-\	.	(8ggg-X\	.	.
.	.	.	.	.	8fff\	.	.
.	.	.	8e- 8B-\	.	8eee-\J)	.	.
.	.	.	8e- 8B-\	.	[3.ggg-\	.	.
.	.	.	4e- 4B-\	.	.	.	.
4G-/	.	4g-/	.	.	.	.	.
.	.	.	8e- 8B-\	.	.	.	.
*v	*v	*	*	*	*	*	*
*	*v	*v	*	*	*	*
!!LO:LB:g=original
=53	=53	=53	=53	=53	=53
*xywh-20:366,1930,3605,739	*xywh-20:366,1930,3605,739	*	*xywh-20:366,1588,3653,397	*	*
8CC/	2gg-X 2g-X\	.	12ggg-\L]	.	.
.	.	.	(12eee-\	.	.
4e- 4B- 4G-X\	.	.	.	.	.
.	.	.	12fff\J	.	.
.	.	.	12ggg-X\L	.	.
.	.	.	12.eee-\	.	.
8e- 8B- 8G-\	.	.	.	.	.
.	.	.	24bb-\Jk)	.	.
8c 8B- 8G-\	(>4ff 4f/	.	[3.bb-\	.	.
4c 4B- 4G-\	.	.	.	.	.
.	4ee- 4e-/)	.	.	.	.
8c 8B- 8G-\	.	.	.	.	.
=54	=54	=54	=54	=54	=54
8FF/	[2dd [2d/	.	12bb-\L]	.	.
.	.	.	(12bb-\	.	.
4B- 4F\	.	.	.	.	.
.	.	.	12ccc\J	.	.
.	.	.	12ddd\L	.	.
.	.	.	12.bb-\	.	.
8B- 8F\	.	.	.	.	.
.	.	.	24ff\Jk)	.	.
8B- 8F\	4dd] 4d/]	.	6.ff\	.	.
4B- 4F\	.	.	.	.	.
.	4dd 4d/	.	6ff\	.	.
8B- 8F\	.	.	.	.	.
.	.	.	12r	.	.
=55	=55	=55	=55	=55	=55
8FF#X/	2ee- 2e-/	.	12r	.	.
.	.	.	(<12Au/L	.	.
4c 4A\	.	.	.	.	.
.	.	.	12c/J	.	.
.	.	.	12e-/L	.	.
.	.	.	12f#X/	.	.
8c 8A\	.	.	.	.	.
.	.	.	12a/J	.	.
8A 8F#X\	(4dd 4d/	.	12cc\L)	.	.
.	.	.	(12dd^^\	.	.
4A 4F#\	.	.	.	.	.
.	.	.	12ff#X\J	.	.
.	4cc 4c/)	.	12eee-\L	.	.
.	.	.	12ddd\	.	.
8A 8F#\	.	.	.	.	.
.	.	.	12aa\J)	.	.
=56	=56	=56	=56	=56	=56
*	*^	*	*	*	*
4GG/	[2b- [2g/	8d 8B-\	.	(12aa\L	.	.
.	.	.	.	12bb-\	.	.
.	.	4d 4B-\	.	.	.	.
.	.	.	.	12ff#X\J	.	.
4BB-/	.	.	.	12gg\L	.	.
.	.	.	.	12cc#X\	.	.
.	.	8d 8B-\	.	.	.	.
.	.	.	.	12dd\J)	.	.
4D\	2b-] 2g/]	8d 8B-\	.	(12ff#\L	.	.
.	.	.	.	12gg\)	.	.
.	.	4d 4B-\	.	.	.	.
.	.	.	.	12aa`\J	.	.
4G\	.	.	.	(6bb- 6b-\	.	.
.	.	8d 8B-\	.	.	.	.
.	.	.	.	12bbb- 12bb-\)	.	.
*	*v	*v	*	*	*	*
!!LO:LB:g=original
!LO:MO:mod==57||	!LO:MO:mod==57||	!LO:MO:mod==57||	!LO:MO:mod==57||	!LO:MO:mod==57||	!LO:MO:mod==57||
=57	=57	=57	=57	=57	=57
*M12/8	*M12/8	*	*M12/8	*	*
*xywh-20:360,3012,3666,843	*xywh-20:360,3012,3666,843	*	*xywh-20:482,2670,3568,427	*	*
8E- 8EE-/	8b- 8g-X 8e- 8B-/	f	2.bbb- 2.bb-\	.	ff
8e-\L	8eee-L 8ee-\	.	.	.	.
8f\J	8fffJ 8ff\	.	.	.	.
8g-X\L	8ggg-XL 8gg-X\	.	.	.	.
8.e-\	8.eee- 8.ee-\	.	.	.	.
16B-\Jk	16bb-Jk 16b-\	.	.	.	.
8B-\L	8bb-L 8b-\	.	(4.aaa-X 4.aa-X\	.	.
8E-\	8e-\	.	.	.	.
8F\J	8f\J	.	.	.	.
8G-X\L	8g-/L	.	4.ggg-X 4.gg-X\)	.	.
8.E-\	8.e-/	.	.	.	.
16BB-\Jk	16B-/Jk	.	.	.	.
=58	=58	=58	=58	=58	=58
8D 8BB- 8FF\	8d< 8B-< 8F</	.	[2.fff [2.ff\	.	.
8B-\L	8bb-L 8b-\	.	.	.	.
8c\J	8cccJ 8cc\	.	.	.	.
8d\L	8dddL 8dd\	.	.	.	.
8.B-\	8.bb- 8.b-\	.	.	.	.
16F\Jk	16ffJk 16f\	.	.	.	.
8F\L	8ffL 8f\	.	4fff] 4ff\]	.	.
8BB-\	8b- 8B-\	.	.	.	.
8C\J	8ccJ 8c\	.	8r	.	.
8D\L	8ddL 8d/	.	4.ddd 4.ff\	.	.
8.BB-\	8.b- 8.B-/	.	.	.	.
16FF\Jk	16f<Jk 16F</	.	.	.	.
=59	=59	=59	=59	=59	=59
!	!LO:TX:t=P:problem:mixed beam	!	!	!	!
8CL 8CC\	8g-X<L 8e-< 8B-< 8G-X</	.	2.eee- 2.gg-X\	.	.
(8A\	(8a\	.	.	.	.
8B-\J	8b-\J	.	.	.	.
8e-\L)	8ee-\L)	.	.	.	.
(8A\	(8a\	.	.	.	.
8B-\J	8b-\J	.	.	.	.
4f 4F\)	4ff 4a 4e-\)	.	(4.ddd 4.ff\	.	.
8r	8r	.	.	.	.
[4.F 4.FF/	4.a 4.e- 4.A/	.	(4.ccc 4.ee-\)	.	.
.	.	.	8qbb- 8qdd/)	.	.
!!LO:PB:g=original
=60	=60	=60	=60	=60	=60
*^	*^	*	*	*	*
*xywh-20:379,4130,3660,989	*xywh-20:379,4130,3660,989	*xywh-20:379,4130,3660,989	*xywh-20:379,4130,3660,989	*	*xywh-20:397,3831,3647,317	*	*
!LO:TX:t=P:problem:brak zakończenia ligatury	!	!	!	!	!	!	!
8F/L]	1.BB-^	8b-L 8d 8B-/	2.ryy	p	4bb- 4dd\	.	.
8B- 8F/	.	8b- 8d'/	.	.	.	.	.
8B-J 8F/	.	8ccJ 8d'/	.	.	8r	.	.
8B-L 8F/	.	8ddL 8d'/	.	.	4r	.	.
8B- 8F/	.	8ee- 8d'/	.	.	.	.	.
8B-J 8F/	.	8eenJ 8d'/	.	.	8r	.	.
8rc	.	8ff^/	8rc	.	2.r	.	.
8B-L 8F/	.	8raa	8d\L	.	.	.	.
8B-J 8F/	.	8raa	8d\J	.	.	.	.
8rc	.	8ggn^/	8rc	.	.	.	.
8B-L 8F/	.	8raa	8d\L	.	.	.	.
8B-J 8F/	.	8raa	8d\J	.	.	.	.
=61	=61	=61	=61	=61	=61	=61	=61
!	!	!	!	!	!	!	!LO:DY:rj
8rc	1.BB-^	[4.ff/	8rc	.	([2.a/	.	p
8AL 8F/	.	.	8e-\L	.	.	.	.
8AJ 8F/	.	.	8e-\J	.	.	.	.
8AL 8F/	.	8ff/L]	8e-\L	.	.	.	.
8A 8F/	.	(8een/	8e-\	.	.	.	.
8AJ 8F/	.	8ee-X/J	8e-\J	.	.	.	.
8rc	.	8dd/L	8rc	.	4.a/]	.	.
8AL 8F/	.	8bn/	8e-\L	.	.	.	.
8AJ 8F/	.	8cc/J	8e-\J	.	.	.	.
8rc	.	(4ee-/	8rc	.	4g/	.	.
8AL 8F/	.	.	8e-\L	.	.	.	.
8AJ 8F/	.	8dd/))	8e-\J	.	8a/)	.	.
=62	=62	=62	=62	=62	=62	=62	=62
8rc	1.BB-^	(8b-/L	8rc	.	(2.b-\	.	.
(8B-L 8F'/	.	8b-'/	(8d'\L	.	.	.	.
8B-J 8F'/	.	8cc'/J	8d'\J	.	.	.	.
8B-L 8F'/	.	8dd'/L	8d'\L	.	.	.	.
8B- 8F'/	.	8ee-X'/	8d'\	.	.	.	.
8B-J 8F'/)	.	8een'/J)	8d'\J)	.	.	.	.
8rc	.	8ff/	8rc	.	4f/)	.	.
8B-L 8F/	.	8raa	8d\L	.	.	.	.
8B-J 8F/	.	8raa	8d\J	.	8r	.	.
8rc	.	8gg/	8rc	.	4r	.	.
8B-L 8F/	.	8raa	8d\L	.	.	.	.
8B-J 8F/	.	8raa	8d\J	.	8r	.	.
!!LO:PB:g=original
=63	=63	=63	=63	=63	=63	=63	=63
*xywh-21:138,817,3712,780	*xywh-21:138,817,3712,780	*xywh-21:138,817,3712,780	*xywh-21:138,817,3712,780	*	*xywh-21:163,262,3608,572	*	*
!	!	!	!	!LO:MO:null:mod=!LO&colon;DY&colon;ed=brack	!	!	!
!	!	!	!	!	!	!	!
!	!	!	!	!LO:MO:null:mod=f	!	!	!
8rc	[4.BB-\	[2.a/	8rc	.	([4.f/	.	f
8AL 8F/	.	.	8e-\L	.	.	.	.
8AJ 8F/	.	.	8e-\J	.	.	.	.
!!LO:TX:B:t=:mod=molto ritenuto
!	!	!	!	!	!LO:TX:a:i:t=molto rit.:dur=9e:ext=ud:problem:text with extention lines:mod=	!	!
4A 4F/	4BB-\]	.	4e-\	.	8f/L]	.	.
.	.	.	.	.	8en/	.	.
8rc	8rEE	.	8rc	.	8e-X/J	.	.
4rc	4rEE	4.a/]	4rc	.	8d/L)	.	.
.	.	.	.	.	8Bn/	.	.
8rc	8rEE	.	8rc	.	8c/J	.	.
4rc	4rEE	(4g/	4rc	.	(4e-/	.	.
8rc	8rEE	8a/)	8rc	.	8d/)	.	.
=64	=64	=64	=64	=64	=64	=64	=64
!!LO:TX:B:t=a tempo
!	!	!	!	!	!LO:TX:a:Bi:t=a tempo.:mod=	!	!
8rc	2.BB-\	8b-/L	8rc	.	(4.B-/	.	.
8F/L	.	(8a/	8d\L	.	.	.	.
8F/J	.	8b-/J	8d\J	.	.	.	.
8F/L	.	8dd/L)	8d\L	.	4.f/)	.	.
8F/	.	(8a/	8d\	.	.	.	.
8F/J	.	8b-/J)	8d\J	.	.	.	.
(8c/L	2.BB-\	(4.ee-/	2.e-\	.	(4.g-X/	.	.
8F/	.	.	.	.	.	.	.
8G-X/J	.	.	.	.	.	.	.
8Gn/L	.	4dd/	.	.	(4f/	.	.
8A-X/	.	.	.	.	.	.	.
8An/J)	.	8cc/)	.	.	8e-/))	.	.
=65	=65	=65	=65	=65	=65	=65	=65
8B-/L	2.BB-\	8b-/L	8d\L	.	2.d/	.	.
8F/	.	8a/	8d\	.	.	.	.
8F/J	.	8b-/J	8d\J	.	.	.	.
8F/L	.	8dd/L	8d\L	.	.	.	.
8F/	.	8a/	8d\	.	.	.	.
8F/J	.	8b-/J	8d\J	.	.	.	.
.	.	.	.	.	(16qqd/LL	.	.
.	.	.	.	.	16qqf/JJ)	.	.
8c/L	2.BB-\	(4.gg-X 4.g-X/	8ryy	.	(4.e-/	.	.
(8F/	.	.	8ryy	.	.	.	.
8G-X/J	.	.	8ryy	.	.	.	.
8Gn/L	.	4ff 4f/	8rcyy	.	(4d/	.	.
8A-X/	.	.	8rcyy	.	.	.	.
8An/J)	.	8ee- 8e-/)	8rcyy	.	8c/))	.	.
*v	*v	*	*	*	*	*	*
*	*v	*v	*	*	*	*
!!LO:LB:g=original
=66	=66	=66	=66	=66	=66
*xywh-21:163,1865,3602,780	*xywh-21:163,1865,3602,780	*	*xywh-21:187,1554,3565,396	*	*
8B-L 8BB-\	8ddL 8d/	.	[1.B-u	.	.
8d 8B-\	8f/	.	.	.	.
8dJ 8B-\	8g/J	.	.	.	.
8dL 8B-\	8aL 8f/	.	.	.	.
8d 8B-\	8b- 8f/	.	.	.	.
8dJ 8B-\	8ccJ 8f/	.	.	.	.
8dL 8B-\	8ddL 8f/	.	.	.	.
8d 8B-\	8a 8f/	.	.	.	.
8dJ 8B-\	8b-J 8f/	.	.	.	.
!	!	!LO:MO:null:mod=>	!	!	!
8dL 8B-\	8ccL 8f/	.	.	.	>
8d 8B-\	8dd 8f/	.	.	.	.
8dJ 8B-\	8ee-J 8f/	.	.	.	.
*clefG2	*	*	*	*	*
=67	=67	=67	=67	=67	=67
8dL 8B-/	8ffL 8f\	.	1.B-_	.	.
8dd 8b-/	8ff\	.	.	.	.
8ddJ 8b-/	8gg\J	.	.	.	.
8ddL 8b-\	8aaL 8ff\	.	.	.	.
8dd 8b-\	8bb- 8ff\	.	.	.	.
8ddJ 8b-\	8cccJ 8ff\	.	.	.	.
8ddL 8b-\	8dddL 8ff\	.	.	.	.
8dd 8b-\	8aa 8ff\	.	.	.	.
!	!	!LO:MO:null:mod=]	!	!	!
8ddJ 8b-\	8bb-J 8ff\	.	.	.	]
8ddL 8b-\	8cccL 8ff\	.	.	.	.
8dd 8b-\	8ddd 8ff\	.	.	.	.
8ddJ 8b-\	8eee-J 8ff\	.	.	.	.
=68	=68	=68	=68	=68	=68
[1.dd [1.b-	[1.fff [1.ddd [1.ff	.	8B-/L]	.	.
.	.	.	(8A^^/	.	.
.	.	.	8B-/J	.	.
.	.	.	8c#X/L	.	.
.	.	.	8d/	.	.
!	!	!LO:MO:null:mod=>	!LO:TX:b:t=dim.:problem:dynamics with extention lines:mod=	!	!LO:HP:t=dim.
.	.	.	8en/J	.	>
.	.	.	8f/L	.	.
.	.	.	8a/	.	.
.	.	.	8b-/J	.	.
.	.	.	8cc#X\L	.	.
.	.	.	8dd\	.	.
!	!	!LO:MO:mod=]	!	!	!
.	.	.	8een\J)	.	.
!!LO:LB:g=original
=69	=69	=69	=69	=69	=69
!!LO:TX:B:t=:mod=molto ritenuto
*xywh-21:150,2962,3590,847	*xywh-21:150,2962,3590,847	*	*xywh-21:169,2627,3571,408	*	*
!	!LO:TX:b:Bi:t=molto rit.:mod=	!	!	!	!
4dd] 4b-\]	1.fff_ 1.ddd_ 1.ff_	.	8ff\L	.	.
.	.	.	(8au\	.	.
8r	.	.	8b-\J	.	.
*clefF4	*	*	*	*	*
!	!	!LO:DY:b=2	!	!	!
(4.B- 4.BB-/	.	p	8cc#X\L	.	.
.	.	.	8dd\	.	.
.	.	.	8een\J	.	.
4.F 4.FF/	.	.	8ff\L	.	.
.	.	.	8aa\	.	.
.	.	.	8bb-\J	.	.
4.D 4.DD/)	.	.	8ccc#X\L	.	.
.	.	.	8ddd\	.	.
!	!	!LO:MO:null:mod]	!	!	!
.	.	.	8fff\J)	.	]]
=70	=70	=70	=70	=70	=70
4BB- 4BBB-/	4fff] 4ddd] 4ff\]	p p	[1.bbb-	.	p
8r	8r	.	.	.	.
4r	4r	.	.	.	.
8r	8r	.	.	.	.
4dd> 4b->\	4ddd 4bb- 4ff/	.	.	.	.
8ryy	8r	.	.	.	.
4ryy	4r	.	.	.	.
8ryy	8r	.	.	.	.
=71	=71	=71	=71	=71	=71
4d 4B-\	4dd 4b- 4f/	.	1.bbb-_	.	.
8r	8r	.	.	.	.
4r	4r	.	.	.	.
8r	8r	.	.	.	.
4D 4BB-\	4d< 4B-< 4F</	.	.	.	.
8r	8ryy	.	.	.	.
4r	4ryy	.	.	.	.
8r	8ryy	.	.	.	.
=72	=72	=72	=72	=72	=72
4BBB- 4BBBB-/	1.ryy	.	4bbb-\]	.	.
8r	.	.	8r	.	.
4r	.	.	4r	.	.
8r	.	.	8r	.	.
*kcancel	*kcancel	*	*kcancel	*	*
2.r;	.	.	2.r;	.	.
!!LO:LB:g=original
=73||	=73||	=73||	=73||	=73||	=73||
*k[b-]	*k[b-]	*	*k[b-]	*	*
*d:	*d:	*	*d:	*	*
*M2/4	*M2/4	*	*M2/4	*	*
*xywh-21:144,4041,3693,1030	*xywh-21:144,4041,3693,1030	*	*xywh-21:144,3736,3693,402	*	*
*tremolo	*tremolo	*	*	*	*
!!!OMD:
!!!OMD-mod: Allegro con fuoco
!	!LO:TX:a:B:t=Allegro con fuoco.:mod=	!	!LO:TX:a:B:t=Allegro con fuoco.:mod=	!	!
(16BB-\LL	(16dLL 16G#X/	ff	2r	.	.
16E\	16e/	.	.	.	.
16BB-\	16d 16G#/	.	.	.	.
16E\	16e/	.	.	.	.
16BB-\	16d 16G#/	.	.	.	.
16E\	16e/	.	.	.	.
16BB-\	16d 16G#/	.	.	.	.
16E\JJ)	16e/JJ)	.	.	.	.
=74	=74	=74	=74	=74	=74
(16BB-\LL	(16dLL 16G#X/	.	2r	.	.
16E\	16e/	.	.	.	.
16BB-\	16d 16G#/	.	.	.	.
16E\	16e/	.	.	.	.
16BB-\	16d 16G#/	.	.	.	.
16E\	16e/	.	.	.	.
16BB-\	16d 16G#/	.	.	.	.
16E\JJ)	16e/JJ)	.	.	.	.
*Xtremolo	*Xtremolo	*	*	*	*
=75	=75	=75	=75	=75	=75
8E 8AA/	8e 8c#X 8A/	.	16r	.	.
!	!	!	!	!	!LO:DY:rj
.	.	.	16A'/LL	.	f <
8r	8r	.	(16B-/	.	.
.	.	.	16A/JJ)	.	.
4r	4r	.	(16d/LL	.	.
.	.	.	16c#X/)	.	.
.	.	.	(16f/	.	.
.	.	.	16e/JJ)	.	.
=76	=76	=76	=76	=76	=76
2r	2r	.	(16b-\LL	.	.
.	.	.	16a\)	.	.
.	.	.	(16dd\	.	.
.	.	.	16cc#X\JJ)	.	.
.	.	.	(16ff\LL	.	.
.	.	.	16ee\)	.	.
.	.	.	(16bb-\	.	.
.	.	.	16aa\JJ)	.	[
=77	=77	=77	=77	=77	=77
*tremolo	*tremolo	*	*	*	*
(16ELL 16BB-\	(16eLL 16d/	ff	2r	.	.
16B-\	16ee 16g#X/	.	.	.	.
16E 16BB-\	16e 16d/	.	.	.	.
16B-\	16ee 16g#X/	.	.	.	.
16E 16BB-\	16e 16d/	.	.	.	.
16B-\	16ee 16g#X/	.	.	.	.
16E 16BB-\	16e 16d/	.	.	.	.
16B-\JJ)	16eeJJ 16g#X/)	.	.	.	.
=78	=78	=78	=78	=78	=78
(16ELL 16BB-\	(16eLL 16d/	.	2r	.	.
16B-\	16ee 16g#X/	.	.	.	.
16E 16BB-\	16e 16d/	.	.	.	.
16B-\	16ee 16g#X/	.	.	.	.
16E 16BB-\	16e 16d/	.	.	.	.
16B-\	16ee 16g#X/	.	.	.	.
16E 16BB-\	16e 16d/	.	.	.	.
16B-\JJ)	16eeJJ 16g#X/)	.	.	.	.
*Xtremolo	*Xtremolo	*	*	*	*
=79	=79	=79	=79	=79	=79
8c#X 8E 8AA\	8ee 8a 8e/	.	16r	.	.
!	!	!	!	!	!LO:DY:rj
.	.	.	16A'u/LL	.	f
8r	8r	.	(16B-^^/	.	.
.	.	.	16A/JJ)	.	.
4r	4r	.	(16d/LL	.	.
.	.	.	16c#X/)	.	.
.	.	.	(16f/	.	.
.	.	.	16e/JJ)	.	.
!!LO:PB:g=original
=80	=80	=80	=80	=80	=80
*xywh-22:403,806,3623,806	*xywh-22:403,806,3623,806	*	*xywh-22:476,342,3543,519	*	*
2r	2r	.	(16b-\LL	.	.
!	!	!	!LO:TX:b:t=cresc.:problem:dynamics with extention lines:mod=	!	!LO:HP:t=cresc.
.	.	.	16a\)	.	<
.	.	.	(16dd\	.	.
.	.	.	16cc#X\JJ)	.	.
.	.	.	(16ff\LL	.	.
.	.	.	16ee\)	.	.
.	.	.	(16bb-\	.	.
.	.	.	16aa\JJ)	.	.
=81	=81	=81	=81	=81	=81
2r	2r	.	(16aa\LL	.	.
.	.	.	16a\	.	.
.	.	.	16cc#X\)	.	.
.	.	.	(16aa\JJ	.	.
.	.	.	16ccc#X\LL)	.	.
.	.	.	(16a\	.	.
.	.	.	16ee\)	.	.
.	.	.	(16ccc#\JJ	.	.
=82	=82	=82	=82	=82	=82
2r	2r	.	16eee\LL)	.	.
.	.	.	(16a\	.	.
.	.	.	16gg\)	.	.
.	.	.	(16eee\JJ	.	.
.	.	.	16ggg\LL)	.	.
.	.	.	(16a\	.	.
.	.	.	16bb-\)	.	.
.	.	.	16ggg\JJ	.	[[
=83	=83	=83	=83	=83	=83
*tremolo	*	*	*	*	*
!	!LO:TX:b:t=cre_scen_do:problem:dynamics with extention lines:mod=	!LO:HP:t=cre_scen_do:ext=2:ud	!	!	!
(32DDD/LLL	16r	mf <	8bbb-\	.	ff
32DD/	.	.	.	.	.
32DDD/	(16e/LL	.	.	.	.
32DD/	.	.	.	.	.
32DDD/	16g/	.	8r	.	.
32DD/	.	.	.	.	.
32DDD/	16b-/JJ)	.	.	.	.
32DD/	.	.	.	.	.
32DDD/	(8ddL 8b- 8g 8e/	.	4r	.	.
32DD/	.	.	.	.	.
32DDD/	.	.	.	.	.
32DD/	.	.	.	.	.
32DDD/	8cc#X/J)	.	.	.	.
32DD/	.	.	.	.	.
32DDD/	.	.	.	.	.
32DD/JJJ)	.	.	.	.	.
=84	=84	=84	=84	=84	=84
(32DDD/LLL	16r	.	2r	.	.
32DD/	.	.	.	.	.
32DDD/	(16g/LL	.	.	.	.
32DD/	.	.	.	.	.
32DDD/	16b-/	.	.	.	.
32DD/	.	.	.	.	.
32DDD/	16cc#X/JJ)	.	.	.	.
32DD/	.	.	.	.	.
32DDD/	(8ffL 8cc# 8b- 8g/	.	.	.	.
32DD/	.	.	.	.	.
32DDD/	.	.	.	.	.
32DD/	.	.	.	.	.
32DDD/	8ee/J)	.	.	.	.
32DD/	.	.	.	.	.
32DDD/	.	.	.	.	.
32DD/JJJ)	.	.	.	.	.
=85	=85	=85	=85	=85	=85
(32DDD/LLL	16r	.	2r	.	.
32DD/	.	.	.	.	.
32DDD/	(16b-\LL	.	.	.	.
32DD/	.	.	.	.	.
32DDD/	16cc#X\	.	.	.	.
32DD/	.	.	.	.	.
32DDD/	16ee\JJ)	.	.	.	.
32DD/	.	[	.	.	.
32DDD/	(8aaL 8ee 8cc# 8b-\	.	.	.	.
32DD/	.	.	.	.	.
32DDD/	.	.	.	.	.
32DD/	.	.	.	.	.
32DDD/	8gg\J)	.	.	.	.
32DD/	.	.	.	.	.
32DDD/	.	.	.	.	.
32DD/JJJ)	.	.	.	.	.
=86	=86	=86	=86	=86	=86
(32DDD/LLL	16r	.	2r	.	.
32DD/	.	.	.	.	.
32DDD/	(16ee\LL	.	.	.	.
32DD/	.	.	.	.	.
32DDD/	16gg\	.	.	.	.
32DD/	.	.	.	.	.
32DDD/	16bb-\JJ)	.	.	.	.
32DD/	.	.	.	.	.
32DDD/	(8dddL 8bb- 8gg 8ee\	.	.	.	.
32DD/	.	.	.	.	.
32DDD/	.	.	.	.	.
32DD/	.	.	.	.	.
32DDD/	8ccc#X\J)	.	.	.	.
32DD/	.	.	.	.	.
32DDD/	.	.	.	.	.
32DD/JJJ)	.	.	.	.	.
!!LO:LB:g=original
=87	=87	=87	=87	=87	=87
*xywh-22:379,1900,3678,800	*xywh-22:379,1900,3678,800	*	*	*xywh-22:421,1552,3550,409	*
8DD 8DDD/	8eee#X 8ccc 8bb- 8gg 8ee\	f	16eee`\LL	.	.
.	.	.	(16ddd\	.	.
8ryy	8ryy	.	16ccc#X\)	.	.
.	.	.	(16bb-\JJ	.	.
8r	8r	.	16aa\LL)	.	.
.	.	.	(16gg\	.	.
8ryy	8ryy	.	16ff\)	.	.
.	.	.	(16eeo\JJ	.	.
=88	=88	=88	=88	=88	=88
4ryy	4ryy	.	16bb-\LL)	4	.
.	.	.	(16aa\	.	.
.	.	.	16gg\)	.	.
.	.	.	(16ff\JJ	.	.
4r;	4r;	.	16ee\LL)	.	.
.	.	.	(16dd\	.	.
.	.	.	16cc#X\)	.	.
!	!LO:MO:mod=!LO&colon;TX&colon;B&colon;b&colon;t=Cadenza	!	!	!	!
!	!LO:TX:b:Bi:t=Cadenza.	!	!	!	!
.	.	.	(16b-\JJ	.	.
=89	=89	=89	=89	=89	=89
2ryy	2ryy	.	16ee\LL)	4	.
.	.	.	(16dd\	.	.
.	.	.	16cc\)	.	.
.	.	.	(16b-\JJ	.	.
.	.	.	16a\LL)	.	.
.	.	.	(16g\	.	.
.	.	.	16f\)	.	.
.	.	.	(16e\JJ	.	.
=90	=90	=90	=90	=90	=90
*	*	*	*	*below	*
2ryy	2ryy	.	16b-/LL)	1	.
.	.	.	(16a/	.	.
.	.	.	16g/)	.	.
.	.	.	(16f/JJ	.	.
.	.	.	16e/LL)	.	.
.	.	.	(16d/	.	.
.	.	.	16c#X/)	.	.
.	.	.	(16B-/JJ	.	.
=91	=91	=91	=91	=91	=91
2ryy	2ryy	.	16A/LL)	.	.
!	!	!	!LO:MO:mod=!LO&colon;TX&colon;B&colon;t=leggiero	!	!
!	!	!	!LO:TX:b:i:t=leggiero.	!	!
.	.	.	16A'/	.	.
.	.	.	16Bn'/	.	.
.	.	.	16c#X'/JJ	.	.
.	.	.	16d'/LL	.	.
.	.	.	16B'/	.	.
.	.	.	16d'/	.	.
.	.	.	16f'/JJ	.	.
=92	=92	=92	=92	=92	=92
2ryy	2ryy	.	16e'/LL	.	.
.	.	.	16d'/	.	.
.	.	.	16Bn'/	.	.
.	.	.	16d'/JJ	.	.
.	.	.	16c#X'/LL	.	.
.	.	.	16e'/	.	.
.	.	.	16g'/	.	.
.	.	.	16b-X'/JJ	4	.
!!LO:LB:g=original
=93	=93	=93	=93	=93	=93
*xywh-22:397,3042,3623,696	*xywh-22:397,3042,3623,696	*	*xywh-22:550,2621,3440,433	*	*
2ryy	2ryy	.	16a'\LL	.	.
.	.	.	16a'\	.	.
.	.	.	16bn'\	.	.
.	.	.	16cc#X'\JJ	.	.
.	.	.	16dd'\LL	.	.
.	.	.	16b'\	.	.
.	.	.	16dd'\	.	.
.	.	.	16ff'\JJ	.	.
=94	=94	=94	=94	=94	=94
2ryy	2ryy	.	16ee'\LL	.	.
.	.	.	16dd'\	.	.
.	.	.	16bn'\	.	.
.	.	.	16dd'\JJ	.	.
.	.	.	16cc#X'\LL	.	.
.	.	.	16ee'\	.	.
.	.	.	16gg'\	.	.
.	.	.	16bb-X'\JJ	.	.
=95	=95	=95	=95	=95	=95
2ryy	2ryy	.	16aa'\LL	.	.
.	.	.	16aa'\	.	.
.	.	.	16bbn'\	.	.
.	.	.	16ccc#X'\JJ	.	.
.	.	.	16ddd'\LL	.	.
.	.	.	16bb'\	.	.
*	*	*	*	*above	*
.	.	.	16ddd'\	2	.
.	.	.	16fff'\JJ	.	.
=96	=96	=96	=96	=96	=96
2ryy	2ryy	.	16eee'\LL	.	.
.	.	.	16ccc#X'\	.	.
.	.	.	16ddd'\	.	.
.	.	.	16eee'\JJ	.	.
.	.	.	16fff'\LL	.	.
.	.	.	16ddd'\	.	.
.	.	.	16fff'\	2	.
.	.	.	16aaa'\JJ	.	.
=97	=97	=97	=97	=97	=97
2ryy	2ryy	.	16ggg'\LL	.	.
.	.	.	16eee'\	.	.
.	.	.	16fff'\	.	.
.	.	.	16ggg'\JJ	.	.
.	.	.	16aaa'\LL	.	.
.	.	.	16fff'\	.	.
.	.	.	16aaa'\	2	.
.	.	.	16cccc'\JJ	.	.
=98	=98	=98	=98	=98	=98
2ryy	2ryy	.	16bbb-X'\LL	3	.
.	.	.	16ggg'\	3	.
.	.	.	16eee'\	.	.
.	.	.	16fff'\JJ	.	.
.	.	.	16ggg'\LL	.	.
.	.	.	16eee'\	.	.
.	.	.	16ccc#X'\	1	.
.	.	.	16ddd'\JJ	.	.
=99	=99	=99	=99	=99	=99
2ryy	2ryy	.	16eee'\LL	.	.
.	.	.	16ccc#X'\	.	.
.	.	.	16gg'\	2	.
.	.	.	16aa'\JJ	.	.
.	.	.	16bb-'\LL	.	.
.	.	.	16gg'\	.	.
.	.	.	16ee'\	.	.
.	.	.	16ff'\JJ	.	.
!!LO:LB:g=original
=100	=100	=100	=100	=100	=100
*xywh-22:397,4075,3660,1099	*xywh-22:397,4075,3660,1099	*	*xywh-22:452,3715,3550,464	*	*
2ryy	2ryy	.	16gg'\LL	.	.
.	.	.	16ee'\	.	.
.	.	.	16cc#X'\	.	.
.	.	.	16dd'\JJ	.	.
.	.	.	16ee'\LL	.	.
.	.	.	16cc#'\	.	.
.	.	.	16g'\	.	.
.	.	.	16a'o\JJ	.	.
=101	=101	=101	=101	=101	=101
2ryy	2ryy	.	16b-'/LL	.	<
.	.	.	16g'/	.	.
.	.	.	16e'/	.	.
.	.	.	16g'/JJ	.	.
.	.	.	16f'/LL	.	.
.	.	.	16d'/	.	.
.	.	.	16B-'/	.	.
.	.	.	16cn'/JJ	.	[
=102	=102	=102	=102	=102	=102
2ryy	2ryy	.	[2A/	.	>]
=103	=103	=103	=103	=103	=103
2ryy	2ryy	.	16A/LL]	.	.
.	.	.	(16g/	.	<
.	.	.	16e/)	.	.
.	.	.	16g/JJ	.	.
.	.	.	16f/LL	.	.
.	.	.	16d/	.	.
.	.	.	16B-X/	.	.
.	.	.	16cn/JJ	.	[
=104	=104	=104	=104	=104	=104
2ryy	2ryy	.	(2A/	.	.
=105	=105	=105	=105	=105	=105
*	*	*	*	*below	*
2ryy	2ryy	.	8.f/L	4	.
.	.	.	16d/K	4	.
.	.	.	8.B-/	.	.
.	.	.	16c/Jk)	.	.
=106	=106	=106	=106	=106	=106
!	!	!	!LO:TX:b:Bi:t=rit. e dim.:dur=4q:ext=s:problem:text with extention lines:mod=	!	!
2ryy	2ryy	.	(8.A^>/L	.	.
.	.	.	16d/K	.	.
.	.	.	8.B-^>/	.	.
.	.	.	16c/Jk	.	.
=107	=107	=107	=107	=107	=107
2ryy	2ryy	.	8.A^>/L	.	.
.	.	.	16d/K	.	.
.	.	.	8.B-^>/	.	.
.	.	.	16c#X/Jk)	4	.
=108	=108	=108	=108	=108	=108
2ryy	2ryy	.	2A;/	.	.
==	==	==	==	==	==
*-	*-	*-	*-	*-	*-
!!!system-decoration: s1{(s2,s3)}
!!!RDF**kern: > = above
!!!RDF**kern: < = below
!!!RDF**kern: N = linked
!!!filter-modern: autostem -r | shed -e "s/TX(.*):t=P:/tx$1:t=P:/LG" | shed -e "s/LO:DY:(a|b|rj)/LO:dy:$1/L" | shed -k -e “s/([()[]_])[><]/$1/g” | modori -m
!!!ENC: Mateusz Solarz
!!!END: 2022-05-11
!!!ENC: Marta Lawrence
!!!END: 2022-05-29
!!!ENC-modern: Leszek Kubiak
!!!END-modern: 2022-07-19
!!!IIIF: https://polona.pl/iiif/item/ODQxMDEyMDI/manifest.json
!!!ENC-iiif: Natalia Wrzos
!!!END-iiif: 2022-08-30
!!!YEC: Copyright 2022 Narodowy Instytut Fryderyka Chopina (https://polishscores.org)
!!!YEM: License CC-BY-4.0 (https://creativecommons.org/licenses/by/4.0)
